%
O06091
(Using high feed G1 F500. instead of G0.)
(T3 D=0.0625 CR=0. - ZMIN=-0.24 - flat end mill)
(T6 D=0.125 CR=0. - ZMIN=-0.24 - flat end mill)
(T10 D=0.25 CR=0. - ZMIN=-0.24 - flat end mill)
N10 G90 G94 G17
N15 G20
N20 G53 G0 Z0.

(2D Pocket6)
N30 T10 M6
(.25 2 flute)
N35 S3820 M3
N40 G54
N45 M8
N55 G0 X1.3405 Y-4.523
N60 G43 Z0.6 H10
N65 T3
N70 G0 Z0.2
N75 G1 Z0.125 F15.279
N80 G3 X1.3393 Y-4.5234 Z0.1174 I0.0387 J-0.1123 F10.
N85 X1.3362 Y-4.5246 Z0.1106 I0.0398 J-0.1119
N90 X1.3313 Y-4.5266 Z0.1051 I0.043 J-0.1107
N95 X1.3252 Y-4.5295 Z0.1014 I0.0479 J-0.1087
N100 X1.3186 Y-4.5331 Z0.1 I0.054 J-0.1058
N105 X1.3277 Y-4.5283 Z0.0743 I0.0606 J-0.1022
N110 X1.3373 Y-4.5242 Z0.0486 I0.0514 J-0.107
N115 X1.3471 Y-4.521 Z0.0229 I0.0419 J-0.1111
N120 X1.3572 Y-4.5186 Z-0.0028 I0.0321 J-0.1143
N125 X1.3674 Y-4.5171 Z-0.0285 I0.022 J-0.1167
N130 X1.3484 Y-4.75 Z-0.04 I0.0117 J-0.1182
N135 G1 X1.3518 Y-4.7509 F20.279
N140 G2 X1.3555 Y-4.7553 I-0.0013 J-0.0049
N145 G1 X1.3559 Y-4.7587
N150 G2 X1.3532 Y-4.7681 I-0.0128 J-0.0014
N155 G1 X1.3522 Y-4.7694
N160 G2 X1.3425 Y-4.7755 I-0.0135 J0.0107
N165 G1 X1.34 Y-4.7761
N170 G2 X1.325 Y-4.7749 I-0.0056 J0.0241
N175 G1 X1.3227 Y-4.7739
N180 G2 X1.308 Y-4.7619 I0.0125 J0.0301
N185 G1 X1.3067 Y-4.7599
N190 G2 X1.2999 Y-4.7381 I0.0338 J0.0225
N195 G1 X1.2998 Y-4.7358
N200 G2 X1.3068 Y-4.7098 I0.0486 J0.0009
N205 G1 X1.3079 Y-4.7079
N210 G2 X1.3304 Y-4.6868 I0.0485 J-0.0292
N215 G1 X1.3324 Y-4.6858
N220 G2 X1.3664 Y-4.6787 I0.0297 J-0.0573
N225 G1 X1.3686 Y-4.6789
N230 G2 X1.4052 Y-4.6917 I-0.0049 J-0.0723
N235 G1 X1.407 Y-4.693
N240 G2 X1.4342 Y-4.7259 I-0.046 J-0.0659
N245 G1 X1.4351 Y-4.7279
N250 G2 X1.4423 Y-4.7741 I-0.0805 J-0.0362
N255 G1 X1.4421 Y-4.7762
N260 G2 X1.4232 Y-4.8233 I-0.0955 J0.0109
N265 G1 X1.4219 Y-4.825
N270 G2 X1.3786 Y-4.8585 I-0.0829 J0.0627
N275 G1 X1.3766 Y-4.8593
N280 G2 X1.3183 Y-4.8665 I-0.0425 J0.1034
N285 G1 X1.3162 Y-4.8662
N290 G2 X1.2585 Y-4.8414 I0.0169 J0.1184
N295 G1 X1.2569 Y-4.84
N300 G2 X1.2174 Y-4.7862 I0.0794 J0.0997
N305 G1 X1.2166 Y-4.7842
N310 G2 X1.2093 Y-4.7138 I0.1262 J0.0487
N315 G1 X1.2096 Y-4.7117
N320 G2 X1.2405 Y-4.6436 I0.1413 J-0.023
N325 G1 X1.2419 Y-4.642
N330 G2 X1.3062 Y-4.5964 I0.1164 J-0.0961
N335 G1 X1.3082 Y-4.5956
N340 G2 X1.3907 Y-4.5883 I0.0548 J-0.149
N345 G1 X1.3927 Y-4.5887
N350 G2 X1.4713 Y-4.6256 I-0.029 J-0.164
N355 G1 X1.473 Y-4.627
N360 G2 X1.5246 Y-4.7017 I-0.1127 J-0.1331
N365 G1 X1.5253 Y-4.7037
N370 G2 X1.5327 Y-4.7983 I-0.1717 J-0.0609
N375 G1 X1.5323 Y-4.8004
N380 G2 X1.4893 Y-4.8895 I-0.1867 J0.0351
N385 G1 X1.488 Y-4.891
N390 G2 X1.4028 Y-4.9488 I-0.1497 J0.1293
N395 G1 X1.3928 Y-4.9522
N400 G2 X1.2109 Y-4.9288 I-0.0674 J0.1954
N405 X1.1664 Y-4.89 I0.1247 J0.1874
N410 G1 X1.1661 Y-4.8896
N415 G2 X1.1327 Y-4.8396 I0.1722 J0.1511
N420 G1 X1.1325 Y-4.8392
N425 G2 X1.1129 Y-4.7813 I0.2091 J0.103
N430 G1 X1.1128 Y-4.7808
N435 G2 X1.1089 Y-4.7187 I0.2326 J0.0459
N440 G1 Y-4.7182
N445 G2 X1.1214 Y-4.6563 I0.2405 J-0.0164
N450 G1 X1.1216 Y-4.6558
N455 G2 X1.1503 Y-4.5983 I0.2318 J-0.0797
N460 G1 X1.1506 Y-4.5979
N465 G2 X1.1939 Y-4.549 I0.2065 J-0.1394
N470 G1 X1.1943 Y-4.5487
N475 G2 X1.2496 Y-4.5122 I0.1658 J-0.1912
N480 G1 X1.2501 Y-4.5119
N485 G2 X1.314 Y-4.4907 I0.1122 J-0.2313
N490 G1 X1.3145 Y-4.4906
N495 G2 X1.3828 Y-4.4867 I0.049 J-0.2565
N500 G1 X1.3833 Y-4.4868
N505 G2 X1.4513 Y-4.5009 I-0.0196 J-0.2644
N510 G1 X1.4518 Y-4.5011
N515 G2 X1.5147 Y-4.5328 I-0.0889 J-0.254
N520 G1 X1.5151 Y-4.5331
N525 G2 X1.5684 Y-4.5809 I-0.154 J-0.2255
N530 G1 X1.5688 Y-4.5813
N535 G2 X1.6084 Y-4.642 I-0.2103 J-0.1804
N540 G1 X1.6099 Y-4.6451
N545 G2 X1.6309 Y-4.7096 I-0.2338 J-0.112
N550 G1 X1.6384 Y-4.75
N555 G3 X1.0584 I-0.29 J0.
N560 X1.6384 I0.29 J0.
N565 X1.6297 Y-4.7381 I-0.0125 J0.
N570 G1 X1.4676 Y-4.6868
N575 G2 X1.459 Y-4.6765 I0.0038 J0.0119
N580 G1 X1.4409 Y-4.5396
N585 G3 X1.4343 Y-4.5301 I-0.0124 J-0.0016
N590 X1.4432 Y-4.5353 Z-0.0657 I-0.0551 J-0.1052 F10.
N595 X1.3484 Y-4.75 Z-0.08 I-0.0641 J-0.1
N600 G1 X1.3518 Y-4.7509 F20.279
N605 G2 X1.3555 Y-4.7553 I-0.0013 J-0.0049
N610 G1 X1.3559 Y-4.7587
N615 G2 X1.3532 Y-4.7681 I-0.0128 J-0.0014
N620 G1 X1.3522 Y-4.7694
N625 G2 X1.3425 Y-4.7755 I-0.0135 J0.0107
N630 G1 X1.34 Y-4.7761
N635 G2 X1.325 Y-4.7749 I-0.0056 J0.0241
N640 G1 X1.3227 Y-4.7739
N645 G2 X1.308 Y-4.7619 I0.0125 J0.0301
N650 G1 X1.3067 Y-4.7599
N655 G2 X1.2999 Y-4.7381 I0.0338 J0.0225
N660 G1 X1.2998 Y-4.7358
N665 G2 X1.3068 Y-4.7098 I0.0486 J0.0009
N670 G1 X1.3079 Y-4.7079
N675 G2 X1.3304 Y-4.6868 I0.0485 J-0.0292
N680 G1 X1.3324 Y-4.6858
N685 G2 X1.3664 Y-4.6787 I0.0297 J-0.0573
N690 G1 X1.3686 Y-4.6789
N695 G2 X1.4052 Y-4.6917 I-0.0049 J-0.0723
N700 G1 X1.407 Y-4.693
N705 G2 X1.4342 Y-4.7259 I-0.046 J-0.0659
N710 G1 X1.4351 Y-4.7279
N715 G2 X1.4423 Y-4.7741 I-0.0805 J-0.0362
N720 G1 X1.4421 Y-4.7762
N725 G2 X1.4232 Y-4.8233 I-0.0955 J0.0109
N730 G1 X1.4219 Y-4.825
N735 G2 X1.3786 Y-4.8585 I-0.0829 J0.0627
N740 G1 X1.3766 Y-4.8593
N745 G2 X1.3183 Y-4.8665 I-0.0425 J0.1034
N750 G1 X1.3162 Y-4.8662
N755 G2 X1.2585 Y-4.8414 I0.0169 J0.1184
N760 G1 X1.2569 Y-4.84
N765 G2 X1.2174 Y-4.7862 I0.0794 J0.0997
N770 G1 X1.2166 Y-4.7842
N775 G2 X1.2093 Y-4.7138 I0.1262 J0.0487
N780 G1 X1.2096 Y-4.7117
N785 G2 X1.2405 Y-4.6436 I0.1413 J-0.023
N790 G1 X1.2419 Y-4.642
N795 G2 X1.3062 Y-4.5964 I0.1164 J-0.0961
N800 G1 X1.3082 Y-4.5956
N805 G2 X1.3907 Y-4.5883 I0.0548 J-0.149
N810 G1 X1.3927 Y-4.5887
N815 G2 X1.4713 Y-4.6256 I-0.029 J-0.164
N820 G1 X1.473 Y-4.627
N825 G2 X1.5246 Y-4.7017 I-0.1127 J-0.1331
N830 G1 X1.5253 Y-4.7037
N835 G2 X1.5327 Y-4.7983 I-0.1717 J-0.0609
N840 G1 X1.5323 Y-4.8004
N845 G2 X1.4893 Y-4.8895 I-0.1867 J0.0351
N850 G1 X1.488 Y-4.891
N855 G2 X1.4028 Y-4.9488 I-0.1497 J0.1293
N860 G1 X1.3928 Y-4.9522
N865 G2 X1.2109 Y-4.9288 I-0.0674 J0.1954
N870 X1.1664 Y-4.89 I0.1247 J0.1874
N875 G1 X1.1661 Y-4.8896
N880 G2 X1.1327 Y-4.8396 I0.1722 J0.1511
N885 G1 X1.1325 Y-4.8392
N890 G2 X1.1129 Y-4.7813 I0.2091 J0.103
N895 G1 X1.1128 Y-4.7808
N900 G2 X1.1089 Y-4.7187 I0.2326 J0.0459
N905 G1 Y-4.7182
N910 G2 X1.1214 Y-4.6563 I0.2405 J-0.0164
N915 G1 X1.1216 Y-4.6558
N920 G2 X1.1503 Y-4.5983 I0.2318 J-0.0797
N925 G1 X1.1506 Y-4.5979
N930 G2 X1.1939 Y-4.549 I0.2065 J-0.1394
N935 G1 X1.1943 Y-4.5487
N940 G2 X1.2496 Y-4.5122 I0.1658 J-0.1912
N945 G1 X1.2501 Y-4.5119
N950 G2 X1.314 Y-4.4907 I0.1122 J-0.2313
N955 G1 X1.3145 Y-4.4906
N960 G2 X1.3828 Y-4.4867 I0.049 J-0.2565
N965 G1 X1.3833 Y-4.4868
N970 G2 X1.4513 Y-4.5009 I-0.0196 J-0.2644
N975 G1 X1.4518 Y-4.5011
N980 G2 X1.5147 Y-4.5328 I-0.0889 J-0.254
N985 G1 X1.5151 Y-4.5331
N990 G2 X1.5684 Y-4.5809 I-0.154 J-0.2255
N995 G1 X1.5688 Y-4.5813
N1000 G2 X1.6084 Y-4.642 I-0.2103 J-0.1804
N1005 G1 X1.6099 Y-4.6451
N1010 G2 X1.6309 Y-4.7096 I-0.2338 J-0.112
N1015 G1 X1.6384 Y-4.75
N1020 G3 X1.0584 I-0.29 J0.
N1025 X1.6384 I0.29 J0.
N1030 X1.6297 Y-4.7381 I-0.0125 J0.
N1035 G1 X1.4676 Y-4.6868
N1040 G2 X1.459 Y-4.6765 I0.0038 J0.0119
N1045 G1 X1.4409 Y-4.5396
N1050 G3 X1.4343 Y-4.5301 I-0.0124 J-0.0016
N1055 X1.4432 Y-4.5353 Z-0.1057 I-0.0551 J-0.1052 F10.
N1060 X1.3484 Y-4.75 Z-0.12 I-0.0641 J-0.1
N1065 G1 X1.3518 Y-4.7509 F20.279
N1070 G2 X1.3555 Y-4.7553 I-0.0013 J-0.0049
N1075 G1 X1.3559 Y-4.7587
N1080 G2 X1.3532 Y-4.7681 I-0.0128 J-0.0014
N1085 G1 X1.3522 Y-4.7694
N1090 G2 X1.3425 Y-4.7755 I-0.0135 J0.0107
N1095 G1 X1.34 Y-4.7761
N1100 G2 X1.325 Y-4.7749 I-0.0056 J0.0241
N1105 G1 X1.3227 Y-4.7739
N1110 G2 X1.308 Y-4.7619 I0.0125 J0.0301
N1115 G1 X1.3067 Y-4.7599
N1120 G2 X1.2999 Y-4.7381 I0.0338 J0.0225
N1125 G1 X1.2998 Y-4.7358
N1130 G2 X1.3068 Y-4.7098 I0.0486 J0.0009
N1135 G1 X1.3079 Y-4.7079
N1140 G2 X1.3304 Y-4.6868 I0.0485 J-0.0292
N1145 G1 X1.3324 Y-4.6858
N1150 G2 X1.3664 Y-4.6787 I0.0297 J-0.0573
N1155 G1 X1.3686 Y-4.6789
N1160 G2 X1.4052 Y-4.6917 I-0.0049 J-0.0723
N1165 G1 X1.407 Y-4.693
N1170 G2 X1.4342 Y-4.7259 I-0.046 J-0.0659
N1175 G1 X1.4351 Y-4.7279
N1180 G2 X1.4423 Y-4.7741 I-0.0805 J-0.0362
N1185 G1 X1.4421 Y-4.7762
N1190 G2 X1.4232 Y-4.8233 I-0.0955 J0.0109
N1195 G1 X1.4219 Y-4.825
N1200 G2 X1.3786 Y-4.8585 I-0.0829 J0.0627
N1205 G1 X1.3766 Y-4.8593
N1210 G2 X1.3183 Y-4.8665 I-0.0425 J0.1034
N1215 G1 X1.3162 Y-4.8662
N1220 G2 X1.2585 Y-4.8414 I0.0169 J0.1184
N1225 G1 X1.2569 Y-4.84
N1230 G2 X1.2174 Y-4.7862 I0.0794 J0.0997
N1235 G1 X1.2166 Y-4.7842
N1240 G2 X1.2093 Y-4.7138 I0.1262 J0.0487
N1245 G1 X1.2096 Y-4.7117
N1250 G2 X1.2405 Y-4.6436 I0.1413 J-0.023
N1255 G1 X1.2419 Y-4.642
N1260 G2 X1.3062 Y-4.5964 I0.1164 J-0.0961
N1265 G1 X1.3082 Y-4.5956
N1270 G2 X1.3907 Y-4.5883 I0.0548 J-0.149
N1275 G1 X1.3927 Y-4.5887
N1280 G2 X1.4713 Y-4.6256 I-0.029 J-0.164
N1285 G1 X1.473 Y-4.627
N1290 G2 X1.5246 Y-4.7017 I-0.1127 J-0.1331
N1295 G1 X1.5253 Y-4.7037
N1300 G2 X1.5327 Y-4.7983 I-0.1717 J-0.0609
N1305 G1 X1.5323 Y-4.8004
N1310 G2 X1.4893 Y-4.8895 I-0.1867 J0.0351
N1315 G1 X1.488 Y-4.891
N1320 G2 X1.4028 Y-4.9488 I-0.1497 J0.1293
N1325 G1 X1.3928 Y-4.9522
N1330 G2 X1.2109 Y-4.9288 I-0.0674 J0.1954
N1335 X1.1664 Y-4.89 I0.1247 J0.1874
N1340 G1 X1.1661 Y-4.8896
N1345 G2 X1.1327 Y-4.8396 I0.1722 J0.1511
N1350 G1 X1.1325 Y-4.8392
N1355 G2 X1.1129 Y-4.7813 I0.2091 J0.103
N1360 G1 X1.1128 Y-4.7808
N1365 G2 X1.1089 Y-4.7187 I0.2326 J0.0459
N1370 G1 Y-4.7182
N1375 G2 X1.1214 Y-4.6563 I0.2405 J-0.0164
N1380 G1 X1.1216 Y-4.6558
N1385 G2 X1.1503 Y-4.5983 I0.2318 J-0.0797
N1390 G1 X1.1506 Y-4.5979
N1395 G2 X1.1939 Y-4.549 I0.2065 J-0.1394
N1400 G1 X1.1943 Y-4.5487
N1405 G2 X1.2496 Y-4.5122 I0.1658 J-0.1912
N1410 G1 X1.2501 Y-4.5119
N1415 G2 X1.314 Y-4.4907 I0.1122 J-0.2313
N1420 G1 X1.3145 Y-4.4906
N1425 G2 X1.3828 Y-4.4867 I0.049 J-0.2565
N1430 G1 X1.3833 Y-4.4868
N1435 G2 X1.4513 Y-4.5009 I-0.0196 J-0.2644
N1440 G1 X1.4518 Y-4.5011
N1445 G2 X1.5147 Y-4.5328 I-0.0889 J-0.254
N1450 G1 X1.5151 Y-4.5331
N1455 G2 X1.5684 Y-4.5809 I-0.154 J-0.2255
N1460 G1 X1.5688 Y-4.5813
N1465 G2 X1.6084 Y-4.642 I-0.2103 J-0.1804
N1470 G1 X1.6099 Y-4.6451
N1475 G2 X1.6309 Y-4.7096 I-0.2338 J-0.112
N1480 G1 X1.6384 Y-4.75
N1485 G3 X1.0584 I-0.29 J0.
N1490 X1.6384 I0.29 J0.
N1495 X1.6297 Y-4.7381 I-0.0125 J0.
N1500 G1 X1.4676 Y-4.6868
N1505 G2 X1.459 Y-4.6765 I0.0038 J0.0119
N1510 G1 X1.4409 Y-4.5396
N1515 G3 X1.4343 Y-4.5301 I-0.0124 J-0.0016
N1520 X1.4432 Y-4.5353 Z-0.1457 I-0.0551 J-0.1052 F10.
N1525 X1.3484 Y-4.75 Z-0.16 I-0.0641 J-0.1
N1530 G1 X1.3518 Y-4.7509 F20.279
N1535 G2 X1.3555 Y-4.7553 I-0.0013 J-0.0049
N1540 G1 X1.3559 Y-4.7587
N1545 G2 X1.3532 Y-4.7681 I-0.0128 J-0.0014
N1550 G1 X1.3522 Y-4.7694
N1555 G2 X1.3425 Y-4.7755 I-0.0135 J0.0107
N1560 G1 X1.34 Y-4.7761
N1565 G2 X1.325 Y-4.7749 I-0.0056 J0.0241
N1570 G1 X1.3227 Y-4.7739
N1575 G2 X1.308 Y-4.7619 I0.0125 J0.0301
N1580 G1 X1.3067 Y-4.7599
N1585 G2 X1.2999 Y-4.7381 I0.0338 J0.0225
N1590 G1 X1.2998 Y-4.7358
N1595 G2 X1.3068 Y-4.7098 I0.0486 J0.0009
N1600 G1 X1.3079 Y-4.7079
N1605 G2 X1.3304 Y-4.6868 I0.0485 J-0.0292
N1610 G1 X1.3324 Y-4.6858
N1615 G2 X1.3664 Y-4.6787 I0.0297 J-0.0573
N1620 G1 X1.3686 Y-4.6789
N1625 G2 X1.4052 Y-4.6917 I-0.0049 J-0.0723
N1630 G1 X1.407 Y-4.693
N1635 G2 X1.4342 Y-4.7259 I-0.046 J-0.0659
N1640 G1 X1.4351 Y-4.7279
N1645 G2 X1.4423 Y-4.7741 I-0.0805 J-0.0362
N1650 G1 X1.4421 Y-4.7762
N1655 G2 X1.4232 Y-4.8233 I-0.0955 J0.0109
N1660 G1 X1.4219 Y-4.825
N1665 G2 X1.3786 Y-4.8585 I-0.0829 J0.0627
N1670 G1 X1.3766 Y-4.8593
N1675 G2 X1.3183 Y-4.8665 I-0.0425 J0.1034
N1680 G1 X1.3162 Y-4.8662
N1685 G2 X1.2585 Y-4.8414 I0.0169 J0.1184
N1690 G1 X1.2569 Y-4.84
N1695 G2 X1.2174 Y-4.7862 I0.0794 J0.0997
N1700 G1 X1.2166 Y-4.7842
N1705 G2 X1.2093 Y-4.7138 I0.1262 J0.0487
N1710 G1 X1.2096 Y-4.7117
N1715 G2 X1.2405 Y-4.6436 I0.1413 J-0.023
N1720 G1 X1.2419 Y-4.642
N1725 G2 X1.3062 Y-4.5964 I0.1164 J-0.0961
N1730 G1 X1.3082 Y-4.5956
N1735 G2 X1.3907 Y-4.5883 I0.0548 J-0.149
N1740 G1 X1.3927 Y-4.5887
N1745 G2 X1.4713 Y-4.6256 I-0.029 J-0.164
N1750 G1 X1.473 Y-4.627
N1755 G2 X1.5246 Y-4.7017 I-0.1127 J-0.1331
N1760 G1 X1.5253 Y-4.7037
N1765 G2 X1.5327 Y-4.7983 I-0.1717 J-0.0609
N1770 G1 X1.5323 Y-4.8004
N1775 G2 X1.4893 Y-4.8895 I-0.1867 J0.0351
N1780 G1 X1.488 Y-4.891
N1785 G2 X1.4028 Y-4.9488 I-0.1497 J0.1293
N1790 G1 X1.3928 Y-4.9522
N1795 G2 X1.2109 Y-4.9288 I-0.0674 J0.1954
N1800 X1.1664 Y-4.89 I0.1247 J0.1874
N1805 G1 X1.1661 Y-4.8896
N1810 G2 X1.1327 Y-4.8396 I0.1722 J0.1511
N1815 G1 X1.1325 Y-4.8392
N1820 G2 X1.1129 Y-4.7813 I0.2091 J0.103
N1825 G1 X1.1128 Y-4.7808
N1830 G2 X1.1089 Y-4.7187 I0.2326 J0.0459
N1835 G1 Y-4.7182
N1840 G2 X1.1214 Y-4.6563 I0.2405 J-0.0164
N1845 G1 X1.1216 Y-4.6558
N1850 G2 X1.1503 Y-4.5983 I0.2318 J-0.0797
N1855 G1 X1.1506 Y-4.5979
N1860 G2 X1.1939 Y-4.549 I0.2065 J-0.1394
N1865 G1 X1.1943 Y-4.5487
N1870 G2 X1.2496 Y-4.5122 I0.1658 J-0.1912
N1875 G1 X1.2501 Y-4.5119
N1880 G2 X1.314 Y-4.4907 I0.1122 J-0.2313
N1885 G1 X1.3145 Y-4.4906
N1890 G2 X1.3828 Y-4.4867 I0.049 J-0.2565
N1895 G1 X1.3833 Y-4.4868
N1900 G2 X1.4513 Y-4.5009 I-0.0196 J-0.2644
N1905 G1 X1.4518 Y-4.5011
N1910 G2 X1.5147 Y-4.5328 I-0.0889 J-0.254
N1915 G1 X1.5151 Y-4.5331
N1920 G2 X1.5684 Y-4.5809 I-0.154 J-0.2255
N1925 G1 X1.5688 Y-4.5813
N1930 G2 X1.6084 Y-4.642 I-0.2103 J-0.1804
N1935 G1 X1.6099 Y-4.6451
N1940 G2 X1.6309 Y-4.7096 I-0.2338 J-0.112
N1945 G1 X1.6384 Y-4.75
N1950 G3 X1.0584 I-0.29 J0.
N1955 X1.6384 I0.29 J0.
N1960 X1.6297 Y-4.7381 I-0.0125 J0.
N1965 G1 X1.4676 Y-4.6868
N1970 G2 X1.459 Y-4.6765 I0.0038 J0.0119
N1975 G1 X1.4409 Y-4.5396
N1980 G3 X1.4343 Y-4.5301 I-0.0124 J-0.0016
N1985 X1.4432 Y-4.5353 Z-0.1857 I-0.0551 J-0.1052 F10.
N1990 X1.3484 Y-4.75 Z-0.2 I-0.0641 J-0.1
N1995 G1 X1.3518 Y-4.7509 F20.279
N2000 G2 X1.3555 Y-4.7553 I-0.0013 J-0.0049
N2005 G1 X1.3559 Y-4.7587
N2010 G2 X1.3532 Y-4.7681 I-0.0128 J-0.0014
N2015 G1 X1.3522 Y-4.7694
N2020 G2 X1.3425 Y-4.7755 I-0.0135 J0.0107
N2025 G1 X1.34 Y-4.7761
N2030 G2 X1.325 Y-4.7749 I-0.0056 J0.0241
N2035 G1 X1.3227 Y-4.7739
N2040 G2 X1.308 Y-4.7619 I0.0125 J0.0301
N2045 G1 X1.3067 Y-4.7599
N2050 G2 X1.2999 Y-4.7381 I0.0338 J0.0225
N2055 G1 X1.2998 Y-4.7358
N2060 G2 X1.3068 Y-4.7098 I0.0486 J0.0009
N2065 G1 X1.3079 Y-4.7079
N2070 G2 X1.3304 Y-4.6868 I0.0485 J-0.0292
N2075 G1 X1.3324 Y-4.6858
N2080 G2 X1.3664 Y-4.6787 I0.0297 J-0.0573
N2085 G1 X1.3686 Y-4.6789
N2090 G2 X1.4052 Y-4.6917 I-0.0049 J-0.0723
N2095 G1 X1.407 Y-4.693
N2100 G2 X1.4342 Y-4.7259 I-0.046 J-0.0659
N2105 G1 X1.4351 Y-4.7279
N2110 G2 X1.4423 Y-4.7741 I-0.0805 J-0.0362
N2115 G1 X1.4421 Y-4.7762
N2120 G2 X1.4232 Y-4.8233 I-0.0955 J0.0109
N2125 G1 X1.4219 Y-4.825
N2130 G2 X1.3786 Y-4.8585 I-0.0829 J0.0627
N2135 G1 X1.3766 Y-4.8593
N2140 G2 X1.3183 Y-4.8665 I-0.0425 J0.1034
N2145 G1 X1.3162 Y-4.8662
N2150 G2 X1.2585 Y-4.8414 I0.0169 J0.1184
N2155 G1 X1.2569 Y-4.84
N2160 G2 X1.2174 Y-4.7862 I0.0794 J0.0997
N2165 G1 X1.2166 Y-4.7842
N2170 G2 X1.2093 Y-4.7138 I0.1262 J0.0487
N2175 G1 X1.2096 Y-4.7117
N2180 G2 X1.2405 Y-4.6436 I0.1413 J-0.023
N2185 G1 X1.2419 Y-4.642
N2190 G2 X1.3062 Y-4.5964 I0.1164 J-0.0961
N2195 G1 X1.3082 Y-4.5956
N2200 G2 X1.3907 Y-4.5883 I0.0548 J-0.149
N2205 G1 X1.3927 Y-4.5887
N2210 G2 X1.4713 Y-4.6256 I-0.029 J-0.164
N2215 G1 X1.473 Y-4.627
N2220 G2 X1.5246 Y-4.7017 I-0.1127 J-0.1331
N2225 G1 X1.5253 Y-4.7037
N2230 G2 X1.5327 Y-4.7983 I-0.1717 J-0.0609
N2235 G1 X1.5323 Y-4.8004
N2240 G2 X1.4893 Y-4.8895 I-0.1867 J0.0351
N2245 G1 X1.488 Y-4.891
N2250 G2 X1.4028 Y-4.9488 I-0.1497 J0.1293
N2255 G1 X1.3928 Y-4.9522
N2260 G2 X1.2109 Y-4.9288 I-0.0674 J0.1954
N2265 X1.1664 Y-4.89 I0.1247 J0.1874
N2270 G1 X1.1661 Y-4.8896
N2275 G2 X1.1327 Y-4.8396 I0.1722 J0.1511
N2280 G1 X1.1325 Y-4.8392
N2285 G2 X1.1129 Y-4.7813 I0.2091 J0.103
N2290 G1 X1.1128 Y-4.7808
N2295 G2 X1.1089 Y-4.7187 I0.2326 J0.0459
N2300 G1 Y-4.7182
N2305 G2 X1.1214 Y-4.6563 I0.2405 J-0.0164
N2310 G1 X1.1216 Y-4.6558
N2315 G2 X1.1503 Y-4.5983 I0.2318 J-0.0797
N2320 G1 X1.1506 Y-4.5979
N2325 G2 X1.1939 Y-4.549 I0.2065 J-0.1394
N2330 G1 X1.1943 Y-4.5487
N2335 G2 X1.2496 Y-4.5122 I0.1658 J-0.1912
N2340 G1 X1.2501 Y-4.5119
N2345 G2 X1.314 Y-4.4907 I0.1122 J-0.2313
N2350 G1 X1.3145 Y-4.4906
N2355 G2 X1.3828 Y-4.4867 I0.049 J-0.2565
N2360 G1 X1.3833 Y-4.4868
N2365 G2 X1.4513 Y-4.5009 I-0.0196 J-0.2644
N2370 G1 X1.4518 Y-4.5011
N2375 G2 X1.5147 Y-4.5328 I-0.0889 J-0.254
N2380 G1 X1.5151 Y-4.5331
N2385 G2 X1.5684 Y-4.5809 I-0.154 J-0.2255
N2390 G1 X1.5688 Y-4.5813
N2395 G2 X1.6084 Y-4.642 I-0.2103 J-0.1804
N2400 G1 X1.6099 Y-4.6451
N2405 G2 X1.6309 Y-4.7096 I-0.2338 J-0.112
N2410 G1 X1.6384 Y-4.75
N2415 G3 X1.0584 I-0.29 J0.
N2420 X1.6384 I0.29 J0.
N2425 X1.6215 Y-4.7383 I-0.0125 J0.
N2430 G1 X1.3817 Y-4.8299
N2435 G2 X1.3745 Y-4.8304 I-0.0045 J0.0117
N2440 G3 X1.3845 Y-4.8331 Z-0.2257 I-0.026 J-0.1159 F10.
N2445 X1.3484 Y-5.065 Z-0.24 I-0.036 J-0.1131
N2450 X1.321 Y-5.0638 I0. J0.315 F20.279
N2455 X1.3622 Y-4.4353 I0.0275 J0.3138
N2460 X1.3484 Y-5.065 I-0.0137 J-0.3147
N2465 X1.356 Y-5.0638 Z-0.2388 I0. J0.025 F15.279
N2470 X1.3623 Y-5.0608 Z-0.2352 I-0.0076 J0.0238
N2475 X1.3665 Y-5.0573 Z-0.2297 I-0.0139 J0.0208
N2480 X1.3688 Y-5.0545 Z-0.2227 I-0.0181 J0.0173
N2485 X1.3695 Y-5.0535 Z-0.215 I-0.0204 J0.0145
N2490 G0 Z0.2
N2495 G1 X1.3405 Y-6.117 F500.
N2500 Z0.125 F15.279
N2505 G3 X1.3393 Y-6.1174 Z0.1174 I0.0387 J-0.1123 F10.
N2510 X1.3362 Y-6.1186 Z0.1106 I0.0398 J-0.1119
N2515 X1.3313 Y-6.1206 Z0.1051 I0.043 J-0.1107
N2520 X1.3252 Y-6.1235 Z0.1014 I0.0479 J-0.1087
N2525 X1.3186 Y-6.1271 Z0.1 I0.054 J-0.1058
N2530 X1.3277 Y-6.1222 Z0.0743 I0.0606 J-0.1022
N2535 X1.3373 Y-6.1182 Z0.0486 I0.0514 J-0.107
N2540 X1.3471 Y-6.1149 Z0.0229 I0.0419 J-0.1111
N2545 X1.3572 Y-6.1126 Z-0.0028 I0.0321 J-0.1143
N2550 X1.3674 Y-6.1111 Z-0.0285 I0.022 J-0.1167
N2555 X1.3484 Y-6.344 Z-0.04 I0.0117 J-0.1182
N2560 G1 X1.3518 Y-6.3449 F20.279
N2565 G2 X1.3555 Y-6.3493 I-0.0013 J-0.0049
N2570 G1 X1.3559 Y-6.3527
N2575 G2 X1.3532 Y-6.3621 I-0.0128 J-0.0014
N2580 G1 X1.3522 Y-6.3634
N2585 G2 X1.3425 Y-6.3695 I-0.0135 J0.0107
N2590 G1 X1.34 Y-6.3701
N2595 G2 X1.325 Y-6.3689 I-0.0056 J0.0241
N2600 G1 X1.3227 Y-6.3679
N2605 G2 X1.308 Y-6.3559 I0.0125 J0.0301
N2610 G1 X1.3067 Y-6.3539
N2615 G2 X1.2999 Y-6.3321 I0.0338 J0.0225
N2620 G1 X1.2998 Y-6.3297
N2625 G2 X1.3068 Y-6.3038 I0.0486 J0.0009
N2630 G1 X1.3079 Y-6.3019
N2635 G2 X1.3304 Y-6.2808 I0.0485 J-0.0292
N2640 G1 X1.3324 Y-6.2798
N2645 G2 X1.3664 Y-6.2727 I0.0297 J-0.0573
N2650 G1 X1.3686 Y-6.2728
N2655 G2 X1.4052 Y-6.2857 I-0.0049 J-0.0723
N2660 G1 X1.407 Y-6.287
N2665 G2 X1.4342 Y-6.3199 I-0.046 J-0.0659
N2670 G1 X1.4351 Y-6.3219
N2675 G2 X1.4423 Y-6.3681 I-0.0805 J-0.0362
N2680 G1 X1.4421 Y-6.3702
N2685 G2 X1.4232 Y-6.4173 I-0.0955 J0.0109
N2690 G1 X1.4219 Y-6.419
N2695 G2 X1.3786 Y-6.4524 I-0.0829 J0.0627
N2700 G1 X1.3766 Y-6.4532
N2705 G2 X1.3183 Y-6.4605 I-0.0425 J0.1034
N2710 G1 X1.3162 Y-6.4602
N2715 G2 X1.2585 Y-6.4353 I0.0169 J0.1184
N2720 G1 X1.2569 Y-6.434
N2725 G2 X1.2174 Y-6.3802 I0.0794 J0.0997
N2730 G1 X1.2166 Y-6.3782
N2735 G2 X1.2093 Y-6.3078 I0.1262 J0.0487
N2740 G1 X1.2096 Y-6.3057
N2745 G2 X1.2405 Y-6.2376 I0.1413 J-0.023
N2750 G1 X1.2419 Y-6.2359
N2755 G2 X1.3062 Y-6.1904 I0.1164 J-0.0961
N2760 G1 X1.3082 Y-6.1896
N2765 G2 X1.3907 Y-6.1823 I0.0548 J-0.149
N2770 G1 X1.3927 Y-6.1827
N2775 G2 X1.4713 Y-6.2196 I-0.029 J-0.164
N2780 G1 X1.473 Y-6.2209
N2785 G2 X1.5246 Y-6.2957 I-0.1127 J-0.1331
N2790 G1 X1.5253 Y-6.2977
N2795 G2 X1.5327 Y-6.3923 I-0.1717 J-0.0609
N2800 G1 X1.5323 Y-6.3943
N2805 G2 X1.4893 Y-6.4834 I-0.1867 J0.0351
N2810 G1 X1.488 Y-6.485
N2815 G2 X1.4028 Y-6.5427 I-0.1497 J0.1293
N2820 G1 X1.3928 Y-6.5462
N2825 G2 X1.2109 Y-6.5228 I-0.0674 J0.1954
N2830 X1.1664 Y-6.4839 I0.1247 J0.1874
N2835 G1 X1.1661 Y-6.4835
N2840 G2 X1.1327 Y-6.4336 I0.1722 J0.1511
N2845 G1 X1.1325 Y-6.4331
N2850 G2 X1.1129 Y-6.3752 I0.2091 J0.103
N2855 G1 X1.1128 Y-6.3747
N2860 G2 X1.1089 Y-6.3127 I0.2326 J0.0459
N2865 G1 Y-6.3122
N2870 G2 X1.1214 Y-6.2502 I0.2405 J-0.0164
N2875 G1 X1.1216 Y-6.2497
N2880 G2 X1.1503 Y-6.1923 I0.2318 J-0.0797
N2885 G1 X1.1506 Y-6.1918
N2890 G2 X1.1939 Y-6.143 I0.2065 J-0.1394
N2895 G1 X1.1943 Y-6.1426
N2900 G2 X1.2496 Y-6.1061 I0.1658 J-0.1912
N2905 G1 X1.2501 Y-6.1059
N2910 G2 X1.314 Y-6.0847 I0.1122 J-0.2313
N2915 G1 X1.3145 Y-6.0846
N2920 G2 X1.3828 Y-6.0807 I0.049 J-0.2565
N2925 G1 X1.3833
N2930 G2 X1.4513 Y-6.0949 I-0.0196 J-0.2644
N2935 G1 X1.4518 Y-6.095
N2940 G2 X1.5147 Y-6.1268 I-0.0889 J-0.254
N2945 G1 X1.5151 Y-6.1271
N2950 G2 X1.5684 Y-6.1748 I-0.154 J-0.2255
N2955 G1 X1.5688 Y-6.1752
N2960 G2 X1.6084 Y-6.236 I-0.2103 J-0.1804
N2965 G1 X1.6099 Y-6.2391
N2970 G2 X1.6309 Y-6.3036 I-0.2338 J-0.112
N2975 G1 X1.6384 Y-6.344
N2980 G3 X1.0584 I-0.29 J0.
N2985 X1.6384 I0.29 J0.
N2990 X1.6297 Y-6.3321 I-0.0125 J0.
N2995 G1 X1.4676 Y-6.2808
N3000 G2 X1.459 Y-6.2705 I0.0038 J0.0119
N3005 G1 X1.4409 Y-6.1335
N3010 G3 X1.4343 Y-6.1241 I-0.0124 J-0.0016
N3015 X1.4432 Y-6.1293 Z-0.0657 I-0.0551 J-0.1052 F10.
N3020 X1.3484 Y-6.344 Z-0.08 I-0.0641 J-0.1
N3025 G1 X1.3518 Y-6.3449 F20.279
N3030 G2 X1.3555 Y-6.3493 I-0.0013 J-0.0049
N3035 G1 X1.3559 Y-6.3527
N3040 G2 X1.3532 Y-6.3621 I-0.0128 J-0.0014
N3045 G1 X1.3522 Y-6.3634
N3050 G2 X1.3425 Y-6.3695 I-0.0135 J0.0107
N3055 G1 X1.34 Y-6.3701
N3060 G2 X1.325 Y-6.3689 I-0.0056 J0.0241
N3065 G1 X1.3227 Y-6.3679
N3070 G2 X1.308 Y-6.3559 I0.0125 J0.0301
N3075 G1 X1.3067 Y-6.3539
N3080 G2 X1.2999 Y-6.3321 I0.0338 J0.0225
N3085 G1 X1.2998 Y-6.3297
N3090 G2 X1.3068 Y-6.3038 I0.0486 J0.0009
N3095 G1 X1.3079 Y-6.3019
N3100 G2 X1.3304 Y-6.2808 I0.0485 J-0.0292
N3105 G1 X1.3324 Y-6.2798
N3110 G2 X1.3664 Y-6.2727 I0.0297 J-0.0573
N3115 G1 X1.3686 Y-6.2728
N3120 G2 X1.4052 Y-6.2857 I-0.0049 J-0.0723
N3125 G1 X1.407 Y-6.287
N3130 G2 X1.4342 Y-6.3199 I-0.046 J-0.0659
N3135 G1 X1.4351 Y-6.3219
N3140 G2 X1.4423 Y-6.3681 I-0.0805 J-0.0362
N3145 G1 X1.4421 Y-6.3702
N3150 G2 X1.4232 Y-6.4173 I-0.0955 J0.0109
N3155 G1 X1.4219 Y-6.419
N3160 G2 X1.3786 Y-6.4524 I-0.0829 J0.0627
N3165 G1 X1.3766 Y-6.4532
N3170 G2 X1.3183 Y-6.4605 I-0.0425 J0.1034
N3175 G1 X1.3162 Y-6.4602
N3180 G2 X1.2585 Y-6.4353 I0.0169 J0.1184
N3185 G1 X1.2569 Y-6.434
N3190 G2 X1.2174 Y-6.3802 I0.0794 J0.0997
N3195 G1 X1.2166 Y-6.3782
N3200 G2 X1.2093 Y-6.3078 I0.1262 J0.0487
N3205 G1 X1.2096 Y-6.3057
N3210 G2 X1.2405 Y-6.2376 I0.1413 J-0.023
N3215 G1 X1.2419 Y-6.2359
N3220 G2 X1.3062 Y-6.1904 I0.1164 J-0.0961
N3225 G1 X1.3082 Y-6.1896
N3230 G2 X1.3907 Y-6.1823 I0.0548 J-0.149
N3235 G1 X1.3927 Y-6.1827
N3240 G2 X1.4713 Y-6.2196 I-0.029 J-0.164
N3245 G1 X1.473 Y-6.2209
N3250 G2 X1.5246 Y-6.2957 I-0.1127 J-0.1331
N3255 G1 X1.5253 Y-6.2977
N3260 G2 X1.5327 Y-6.3923 I-0.1717 J-0.0609
N3265 G1 X1.5323 Y-6.3943
N3270 G2 X1.4893 Y-6.4834 I-0.1867 J0.0351
N3275 G1 X1.488 Y-6.485
N3280 G2 X1.4028 Y-6.5427 I-0.1497 J0.1293
N3285 G1 X1.3928 Y-6.5462
N3290 G2 X1.2109 Y-6.5228 I-0.0674 J0.1954
N3295 X1.1664 Y-6.4839 I0.1247 J0.1874
N3300 G1 X1.1661 Y-6.4835
N3305 G2 X1.1327 Y-6.4336 I0.1722 J0.1511
N3310 G1 X1.1325 Y-6.4331
N3315 G2 X1.1129 Y-6.3752 I0.2091 J0.103
N3320 G1 X1.1128 Y-6.3747
N3325 G2 X1.1089 Y-6.3127 I0.2326 J0.0459
N3330 G1 Y-6.3122
N3335 G2 X1.1214 Y-6.2502 I0.2405 J-0.0164
N3340 G1 X1.1216 Y-6.2497
N3345 G2 X1.1503 Y-6.1923 I0.2318 J-0.0797
N3350 G1 X1.1506 Y-6.1918
N3355 G2 X1.1939 Y-6.143 I0.2065 J-0.1394
N3360 G1 X1.1943 Y-6.1426
N3365 G2 X1.2496 Y-6.1061 I0.1658 J-0.1912
N3370 G1 X1.2501 Y-6.1059
N3375 G2 X1.314 Y-6.0847 I0.1122 J-0.2313
N3380 G1 X1.3145 Y-6.0846
N3385 G2 X1.3828 Y-6.0807 I0.049 J-0.2565
N3390 G1 X1.3833
N3395 G2 X1.4513 Y-6.0949 I-0.0196 J-0.2644
N3400 G1 X1.4518 Y-6.095
N3405 G2 X1.5147 Y-6.1268 I-0.0889 J-0.254
N3410 G1 X1.5151 Y-6.1271
N3415 G2 X1.5684 Y-6.1748 I-0.154 J-0.2255
N3420 G1 X1.5688 Y-6.1752
N3425 G2 X1.6084 Y-6.236 I-0.2103 J-0.1804
N3430 G1 X1.6099 Y-6.2391
N3435 G2 X1.6309 Y-6.3036 I-0.2338 J-0.112
N3440 G1 X1.6384 Y-6.344
N3445 G3 X1.0584 I-0.29 J0.
N3450 X1.6384 I0.29 J0.
N3455 X1.6297 Y-6.3321 I-0.0125 J0.
N3460 G1 X1.4676 Y-6.2808
N3465 G2 X1.459 Y-6.2705 I0.0038 J0.0119
N3470 G1 X1.4409 Y-6.1335
N3475 G3 X1.4343 Y-6.1241 I-0.0124 J-0.0016
N3480 X1.4432 Y-6.1293 Z-0.1057 I-0.0551 J-0.1052 F10.
N3485 X1.3484 Y-6.344 Z-0.12 I-0.0641 J-0.1
N3490 G1 X1.3518 Y-6.3449 F20.279
N3495 G2 X1.3555 Y-6.3493 I-0.0013 J-0.0049
N3500 G1 X1.3559 Y-6.3527
N3505 G2 X1.3532 Y-6.3621 I-0.0128 J-0.0014
N3510 G1 X1.3522 Y-6.3634
N3515 G2 X1.3425 Y-6.3695 I-0.0135 J0.0107
N3520 G1 X1.34 Y-6.3701
N3525 G2 X1.325 Y-6.3689 I-0.0056 J0.0241
N3530 G1 X1.3227 Y-6.3679
N3535 G2 X1.308 Y-6.3559 I0.0125 J0.0301
N3540 G1 X1.3067 Y-6.3539
N3545 G2 X1.2999 Y-6.3321 I0.0338 J0.0225
N3550 G1 X1.2998 Y-6.3297
N3555 G2 X1.3068 Y-6.3038 I0.0486 J0.0009
N3560 G1 X1.3079 Y-6.3019
N3565 G2 X1.3304 Y-6.2808 I0.0485 J-0.0292
N3570 G1 X1.3324 Y-6.2798
N3575 G2 X1.3664 Y-6.2727 I0.0297 J-0.0573
N3580 G1 X1.3686 Y-6.2728
N3585 G2 X1.4052 Y-6.2857 I-0.0049 J-0.0723
N3590 G1 X1.407 Y-6.287
N3595 G2 X1.4342 Y-6.3199 I-0.046 J-0.0659
N3600 G1 X1.4351 Y-6.3219
N3605 G2 X1.4423 Y-6.3681 I-0.0805 J-0.0362
N3610 G1 X1.4421 Y-6.3702
N3615 G2 X1.4232 Y-6.4173 I-0.0955 J0.0109
N3620 G1 X1.4219 Y-6.419
N3625 G2 X1.3786 Y-6.4524 I-0.0829 J0.0627
N3630 G1 X1.3766 Y-6.4532
N3635 G2 X1.3183 Y-6.4605 I-0.0425 J0.1034
N3640 G1 X1.3162 Y-6.4602
N3645 G2 X1.2585 Y-6.4353 I0.0169 J0.1184
N3650 G1 X1.2569 Y-6.434
N3655 G2 X1.2174 Y-6.3802 I0.0794 J0.0997
N3660 G1 X1.2166 Y-6.3782
N3665 G2 X1.2093 Y-6.3078 I0.1262 J0.0487
N3670 G1 X1.2096 Y-6.3057
N3675 G2 X1.2405 Y-6.2376 I0.1413 J-0.023
N3680 G1 X1.2419 Y-6.2359
N3685 G2 X1.3062 Y-6.1904 I0.1164 J-0.0961
N3690 G1 X1.3082 Y-6.1896
N3695 G2 X1.3907 Y-6.1823 I0.0548 J-0.149
N3700 G1 X1.3927 Y-6.1827
N3705 G2 X1.4713 Y-6.2196 I-0.029 J-0.164
N3710 G1 X1.473 Y-6.2209
N3715 G2 X1.5246 Y-6.2957 I-0.1127 J-0.1331
N3720 G1 X1.5253 Y-6.2977
N3725 G2 X1.5327 Y-6.3923 I-0.1717 J-0.0609
N3730 G1 X1.5323 Y-6.3943
N3735 G2 X1.4893 Y-6.4834 I-0.1867 J0.0351
N3740 G1 X1.488 Y-6.485
N3745 G2 X1.4028 Y-6.5427 I-0.1497 J0.1293
N3750 G1 X1.3928 Y-6.5462
N3755 G2 X1.2109 Y-6.5228 I-0.0674 J0.1954
N3760 X1.1664 Y-6.4839 I0.1247 J0.1874
N3765 G1 X1.1661 Y-6.4835
N3770 G2 X1.1327 Y-6.4336 I0.1722 J0.1511
N3775 G1 X1.1325 Y-6.4331
N3780 G2 X1.1129 Y-6.3752 I0.2091 J0.103
N3785 G1 X1.1128 Y-6.3747
N3790 G2 X1.1089 Y-6.3127 I0.2326 J0.0459
N3795 G1 Y-6.3122
N3800 G2 X1.1214 Y-6.2502 I0.2405 J-0.0164
N3805 G1 X1.1216 Y-6.2497
N3810 G2 X1.1503 Y-6.1923 I0.2318 J-0.0797
N3815 G1 X1.1506 Y-6.1918
N3820 G2 X1.1939 Y-6.143 I0.2065 J-0.1394
N3825 G1 X1.1943 Y-6.1426
N3830 G2 X1.2496 Y-6.1061 I0.1658 J-0.1912
N3835 G1 X1.2501 Y-6.1059
N3840 G2 X1.314 Y-6.0847 I0.1122 J-0.2313
N3845 G1 X1.3145 Y-6.0846
N3850 G2 X1.3828 Y-6.0807 I0.049 J-0.2565
N3855 G1 X1.3833
N3860 G2 X1.4513 Y-6.0949 I-0.0196 J-0.2644
N3865 G1 X1.4518 Y-6.095
N3870 G2 X1.5147 Y-6.1268 I-0.0889 J-0.254
N3875 G1 X1.5151 Y-6.1271
N3880 G2 X1.5684 Y-6.1748 I-0.154 J-0.2255
N3885 G1 X1.5688 Y-6.1752
N3890 G2 X1.6084 Y-6.236 I-0.2103 J-0.1804
N3895 G1 X1.6099 Y-6.2391
N3900 G2 X1.6309 Y-6.3036 I-0.2338 J-0.112
N3905 G1 X1.6384 Y-6.344
N3910 G3 X1.0584 I-0.29 J0.
N3915 X1.6384 I0.29 J0.
N3920 X1.6297 Y-6.3321 I-0.0125 J0.
N3925 G1 X1.4676 Y-6.2808
N3930 G2 X1.459 Y-6.2705 I0.0038 J0.0119
N3935 G1 X1.4409 Y-6.1335
N3940 G3 X1.4343 Y-6.1241 I-0.0124 J-0.0016
N3945 X1.4432 Y-6.1293 Z-0.1457 I-0.0551 J-0.1052 F10.
N3950 X1.3484 Y-6.344 Z-0.16 I-0.0641 J-0.1
N3955 G1 X1.3518 Y-6.3449 F20.279
N3960 G2 X1.3555 Y-6.3493 I-0.0013 J-0.0049
N3965 G1 X1.3559 Y-6.3527
N3970 G2 X1.3532 Y-6.3621 I-0.0128 J-0.0014
N3975 G1 X1.3522 Y-6.3634
N3980 G2 X1.3425 Y-6.3695 I-0.0135 J0.0107
N3985 G1 X1.34 Y-6.3701
N3990 G2 X1.325 Y-6.3689 I-0.0056 J0.0241
N3995 G1 X1.3227 Y-6.3679
N4000 G2 X1.308 Y-6.3559 I0.0125 J0.0301
N4005 G1 X1.3067 Y-6.3539
N4010 G2 X1.2999 Y-6.3321 I0.0338 J0.0225
N4015 G1 X1.2998 Y-6.3297
N4020 G2 X1.3068 Y-6.3038 I0.0486 J0.0009
N4025 G1 X1.3079 Y-6.3019
N4030 G2 X1.3304 Y-6.2808 I0.0485 J-0.0292
N4035 G1 X1.3324 Y-6.2798
N4040 G2 X1.3664 Y-6.2727 I0.0297 J-0.0573
N4045 G1 X1.3686 Y-6.2728
N4050 G2 X1.4052 Y-6.2857 I-0.0049 J-0.0723
N4055 G1 X1.407 Y-6.287
N4060 G2 X1.4342 Y-6.3199 I-0.046 J-0.0659
N4065 G1 X1.4351 Y-6.3219
N4070 G2 X1.4423 Y-6.3681 I-0.0805 J-0.0362
N4075 G1 X1.4421 Y-6.3702
N4080 G2 X1.4232 Y-6.4173 I-0.0955 J0.0109
N4085 G1 X1.4219 Y-6.419
N4090 G2 X1.3786 Y-6.4524 I-0.0829 J0.0627
N4095 G1 X1.3766 Y-6.4532
N4100 G2 X1.3183 Y-6.4605 I-0.0425 J0.1034
N4105 G1 X1.3162 Y-6.4602
N4110 G2 X1.2585 Y-6.4353 I0.0169 J0.1184
N4115 G1 X1.2569 Y-6.434
N4120 G2 X1.2174 Y-6.3802 I0.0794 J0.0997
N4125 G1 X1.2166 Y-6.3782
N4130 G2 X1.2093 Y-6.3078 I0.1262 J0.0487
N4135 G1 X1.2096 Y-6.3057
N4140 G2 X1.2405 Y-6.2376 I0.1413 J-0.023
N4145 G1 X1.2419 Y-6.2359
N4150 G2 X1.3062 Y-6.1904 I0.1164 J-0.0961
N4155 G1 X1.3082 Y-6.1896
N4160 G2 X1.3907 Y-6.1823 I0.0548 J-0.149
N4165 G1 X1.3927 Y-6.1827
N4170 G2 X1.4713 Y-6.2196 I-0.029 J-0.164
N4175 G1 X1.473 Y-6.2209
N4180 G2 X1.5246 Y-6.2957 I-0.1127 J-0.1331
N4185 G1 X1.5253 Y-6.2977
N4190 G2 X1.5327 Y-6.3923 I-0.1717 J-0.0609
N4195 G1 X1.5323 Y-6.3943
N4200 G2 X1.4893 Y-6.4834 I-0.1867 J0.0351
N4205 G1 X1.488 Y-6.485
N4210 G2 X1.4028 Y-6.5427 I-0.1497 J0.1293
N4215 G1 X1.3928 Y-6.5462
N4220 G2 X1.2109 Y-6.5228 I-0.0674 J0.1954
N4225 X1.1664 Y-6.4839 I0.1247 J0.1874
N4230 G1 X1.1661 Y-6.4835
N4235 G2 X1.1327 Y-6.4336 I0.1722 J0.1511
N4240 G1 X1.1325 Y-6.4331
N4245 G2 X1.1129 Y-6.3752 I0.2091 J0.103
N4250 G1 X1.1128 Y-6.3747
N4255 G2 X1.1089 Y-6.3127 I0.2326 J0.0459
N4260 G1 Y-6.3122
N4265 G2 X1.1214 Y-6.2502 I0.2405 J-0.0164
N4270 G1 X1.1216 Y-6.2497
N4275 G2 X1.1503 Y-6.1923 I0.2318 J-0.0797
N4280 G1 X1.1506 Y-6.1918
N4285 G2 X1.1939 Y-6.143 I0.2065 J-0.1394
N4290 G1 X1.1943 Y-6.1426
N4295 G2 X1.2496 Y-6.1061 I0.1658 J-0.1912
N4300 G1 X1.2501 Y-6.1059
N4305 G2 X1.314 Y-6.0847 I0.1122 J-0.2313
N4310 G1 X1.3145 Y-6.0846
N4315 G2 X1.3828 Y-6.0807 I0.049 J-0.2565
N4320 G1 X1.3833
N4325 G2 X1.4513 Y-6.0949 I-0.0196 J-0.2644
N4330 G1 X1.4518 Y-6.095
N4335 G2 X1.5147 Y-6.1268 I-0.0889 J-0.254
N4340 G1 X1.5151 Y-6.1271
N4345 G2 X1.5684 Y-6.1748 I-0.154 J-0.2255
N4350 G1 X1.5688 Y-6.1752
N4355 G2 X1.6084 Y-6.236 I-0.2103 J-0.1804
N4360 G1 X1.6099 Y-6.2391
N4365 G2 X1.6309 Y-6.3036 I-0.2338 J-0.112
N4370 G1 X1.6384 Y-6.344
N4375 G3 X1.0584 I-0.29 J0.
N4380 X1.6384 I0.29 J0.
N4385 X1.6297 Y-6.3321 I-0.0125 J0.
N4390 G1 X1.4676 Y-6.2808
N4395 G2 X1.459 Y-6.2705 I0.0038 J0.0119
N4400 G1 X1.4409 Y-6.1335
N4405 G3 X1.4343 Y-6.1241 I-0.0124 J-0.0016
N4410 X1.4432 Y-6.1293 Z-0.1857 I-0.0551 J-0.1052 F10.
N4415 X1.3484 Y-6.344 Z-0.2 I-0.0641 J-0.1
N4420 G1 X1.3518 Y-6.3449 F20.279
N4425 G2 X1.3555 Y-6.3493 I-0.0013 J-0.0049
N4430 G1 X1.3559 Y-6.3527
N4435 G2 X1.3532 Y-6.3621 I-0.0128 J-0.0014
N4440 G1 X1.3522 Y-6.3634
N4445 G2 X1.3425 Y-6.3695 I-0.0135 J0.0107
N4450 G1 X1.34 Y-6.3701
N4455 G2 X1.325 Y-6.3689 I-0.0056 J0.0241
N4460 G1 X1.3227 Y-6.3679
N4465 G2 X1.308 Y-6.3559 I0.0125 J0.0301
N4470 G1 X1.3067 Y-6.3539
N4475 G2 X1.2999 Y-6.3321 I0.0338 J0.0225
N4480 G1 X1.2998 Y-6.3297
N4485 G2 X1.3068 Y-6.3038 I0.0486 J0.0009
N4490 G1 X1.3079 Y-6.3019
N4495 G2 X1.3304 Y-6.2808 I0.0485 J-0.0292
N4500 G1 X1.3324 Y-6.2798
N4505 G2 X1.3664 Y-6.2727 I0.0297 J-0.0573
N4510 G1 X1.3686 Y-6.2728
N4515 G2 X1.4052 Y-6.2857 I-0.0049 J-0.0723
N4520 G1 X1.407 Y-6.287
N4525 G2 X1.4342 Y-6.3199 I-0.046 J-0.0659
N4530 G1 X1.4351 Y-6.3219
N4535 G2 X1.4423 Y-6.3681 I-0.0805 J-0.0362
N4540 G1 X1.4421 Y-6.3702
N4545 G2 X1.4232 Y-6.4173 I-0.0955 J0.0109
N4550 G1 X1.4219 Y-6.419
N4555 G2 X1.3786 Y-6.4524 I-0.0829 J0.0627
N4560 G1 X1.3766 Y-6.4532
N4565 G2 X1.3183 Y-6.4605 I-0.0425 J0.1034
N4570 G1 X1.3162 Y-6.4602
N4575 G2 X1.2585 Y-6.4353 I0.0169 J0.1184
N4580 G1 X1.2569 Y-6.434
N4585 G2 X1.2174 Y-6.3802 I0.0794 J0.0997
N4590 G1 X1.2166 Y-6.3782
N4595 G2 X1.2093 Y-6.3078 I0.1262 J0.0487
N4600 G1 X1.2096 Y-6.3057
N4605 G2 X1.2405 Y-6.2376 I0.1413 J-0.023
N4610 G1 X1.2419 Y-6.2359
N4615 G2 X1.3062 Y-6.1904 I0.1164 J-0.0961
N4620 G1 X1.3082 Y-6.1896
N4625 G2 X1.3907 Y-6.1823 I0.0548 J-0.149
N4630 G1 X1.3927 Y-6.1827
N4635 G2 X1.4713 Y-6.2196 I-0.029 J-0.164
N4640 G1 X1.473 Y-6.2209
N4645 G2 X1.5246 Y-6.2957 I-0.1127 J-0.1331
N4650 G1 X1.5253 Y-6.2977
N4655 G2 X1.5327 Y-6.3923 I-0.1717 J-0.0609
N4660 G1 X1.5323 Y-6.3943
N4665 G2 X1.4893 Y-6.4834 I-0.1867 J0.0351
N4670 G1 X1.488 Y-6.485
N4675 G2 X1.4028 Y-6.5427 I-0.1497 J0.1293
N4680 G1 X1.3928 Y-6.5462
N4685 G2 X1.2109 Y-6.5228 I-0.0674 J0.1954
N4690 X1.1664 Y-6.4839 I0.1247 J0.1874
N4695 G1 X1.1661 Y-6.4835
N4700 G2 X1.1327 Y-6.4336 I0.1722 J0.1511
N4705 G1 X1.1325 Y-6.4331
N4710 G2 X1.1129 Y-6.3752 I0.2091 J0.103
N4715 G1 X1.1128 Y-6.3747
N4720 G2 X1.1089 Y-6.3127 I0.2326 J0.0459
N4725 G1 Y-6.3122
N4730 G2 X1.1214 Y-6.2502 I0.2405 J-0.0164
N4735 G1 X1.1216 Y-6.2497
N4740 G2 X1.1503 Y-6.1923 I0.2318 J-0.0797
N4745 G1 X1.1506 Y-6.1918
N4750 G2 X1.1939 Y-6.143 I0.2065 J-0.1394
N4755 G1 X1.1943 Y-6.1426
N4760 G2 X1.2496 Y-6.1061 I0.1658 J-0.1912
N4765 G1 X1.2501 Y-6.1059
N4770 G2 X1.314 Y-6.0847 I0.1122 J-0.2313
N4775 G1 X1.3145 Y-6.0846
N4780 G2 X1.3828 Y-6.0807 I0.049 J-0.2565
N4785 G1 X1.3833
N4790 G2 X1.4513 Y-6.0949 I-0.0196 J-0.2644
N4795 G1 X1.4518 Y-6.095
N4800 G2 X1.5147 Y-6.1268 I-0.0889 J-0.254
N4805 G1 X1.5151 Y-6.1271
N4810 G2 X1.5684 Y-6.1748 I-0.154 J-0.2255
N4815 G1 X1.5688 Y-6.1752
N4820 G2 X1.6084 Y-6.236 I-0.2103 J-0.1804
N4825 G1 X1.6099 Y-6.2391
N4830 G2 X1.6309 Y-6.3036 I-0.2338 J-0.112
N4835 G1 X1.6384 Y-6.344
N4840 G3 X1.0584 I-0.29 J0.
N4845 X1.6384 I0.29 J0.
N4850 X1.624 Y-6.3316 I-0.0125 J0.
N4855 G1 X1.2822 Y-6.3851
N4860 G2 X1.268 Y-6.37 I-0.0019 J0.0123
N4865 G3 X1.2653 Y-6.38 Z-0.2257 I-0.1159 J0.026 F10.
N4870 X1.0334 Y-6.344 Z-0.24 I-0.1131 J0.036
N4875 X1.0346 Y-6.3165 I0.315 J0. F20.279
N4880 X1.6631 Y-6.3577 I0.3138 J-0.0275
N4885 X1.0334 Y-6.344 I-0.3147 J0.0137
N4890 X1.0346 Y-6.3516 Z-0.2388 I0.025 J0. F15.279
N4895 X1.0376 Y-6.3578 Z-0.2352 I0.0238 J0.0076
N4900 X1.0412 Y-6.3621 Z-0.2297 I0.0208 J0.0139
N4905 X1.0439 Y-6.3643 Z-0.2227 I0.0173 J0.0181
N4910 X1.0449 Y-6.365 Z-0.215 I0.0145 J0.0204
N4915 G0 Z0.2
N4920 G1 X2.3405 Y-2.9291 F500.
N4925 Z0.125 F15.279
N4930 G3 X2.3393 Y-2.9295 Z0.1174 I0.0387 J-0.1123 F10.
N4935 X2.3362 Y-2.9306 Z0.1106 I0.0398 J-0.1119
N4940 X2.3313 Y-2.9327 Z0.1051 I0.043 J-0.1107
N4945 X2.3252 Y-2.9356 Z0.1014 I0.0479 J-0.1087
N4950 X2.3186 Y-2.9392 Z0.1 I0.054 J-0.1058
N4955 X2.3277 Y-2.9343 Z0.0743 I0.0606 J-0.1022
N4960 X2.3373 Y-2.9302 Z0.0486 I0.0514 J-0.107
N4965 X2.3471 Y-2.927 Z0.0229 I0.0419 J-0.1111
N4970 X2.3572 Y-2.9246 Z-0.0028 I0.0321 J-0.1143
N4975 X2.3674 Y-2.9232 Z-0.0285 I0.022 J-0.1167
N4980 X2.3484 Y-3.156 Z-0.04 I0.0117 J-0.1182
N4985 G1 X2.3518 Y-3.1569 F20.279
N4990 G2 X2.3555 Y-3.1613 I-0.0013 J-0.0049
N4995 G1 X2.3559 Y-3.1648
N5000 G2 X2.3532 Y-3.1741 I-0.0128 J-0.0014
N5005 G1 X2.3522 Y-3.1755
N5010 G2 X2.3425 Y-3.1816 I-0.0135 J0.0107
N5015 G1 X2.34 Y-3.1822
N5020 G2 X2.325 Y-3.1809 I-0.0056 J0.0241
N5025 G1 X2.3227 Y-3.18
N5030 G2 X2.308 Y-3.168 I0.0125 J0.0301
N5035 G1 X2.3067 Y-3.166
N5040 G2 X2.2999 Y-3.1441 I0.0338 J0.0225
N5045 G1 X2.2998 Y-3.1418
N5050 G2 X2.3068 Y-3.1159 I0.0486 J0.0009
N5055 G1 X2.3079 Y-3.1139
N5060 G2 X2.3304 Y-3.0929 I0.0485 J-0.0292
N5065 G1 X2.3324 Y-3.0918
N5070 G2 X2.3664 Y-3.0848 I0.0297 J-0.0573
N5075 G1 X2.3686 Y-3.0849
N5080 G2 X2.4052 Y-3.0978 I-0.0049 J-0.0723
N5085 G1 X2.407 Y-3.099
N5090 G2 X2.4342 Y-3.132 I-0.046 J-0.0659
N5095 G1 X2.4351 Y-3.1339
N5100 G2 X2.4423 Y-3.1801 I-0.0805 J-0.0362
N5105 G1 X2.4421 Y-3.1823
N5110 G2 X2.4232 Y-3.2294 I-0.0955 J0.0109
N5115 G1 X2.4219 Y-3.2311
N5120 G2 X2.3786 Y-3.2645 I-0.0829 J0.0627
N5125 G1 X2.3766 Y-3.2653
N5130 G2 X2.3183 Y-3.2726 I-0.0425 J0.1034
N5135 G1 X2.3162 Y-3.2723
N5140 G2 X2.2585 Y-3.2474 I0.0169 J0.1184
N5145 G1 X2.2569 Y-3.2461
N5150 G2 X2.2174 Y-3.1922 I0.0794 J0.0997
N5155 G1 X2.2166 Y-3.1903
N5160 G2 X2.2093 Y-3.1198 I0.1262 J0.0487
N5165 G1 X2.2096 Y-3.1178
N5170 G2 X2.2405 Y-3.0496 I0.1413 J-0.023
N5175 G1 X2.2419 Y-3.048
N5180 G2 X2.3062 Y-3.0024 I0.1164 J-0.0961
N5185 G1 X2.3082 Y-3.0017
N5190 G2 X2.3907 Y-2.9944 I0.0548 J-0.149
N5195 G1 X2.3927 Y-2.9947
N5200 G2 X2.4713 Y-3.0316 I-0.029 J-0.164
N5205 G1 X2.473 Y-3.033
N5210 G2 X2.5246 Y-3.1078 I-0.1127 J-0.1331
N5215 G1 X2.5253 Y-3.1097
N5220 G2 X2.5327 Y-3.2043 I-0.1717 J-0.0609
N5225 G1 X2.5323 Y-3.2064
N5230 G2 X2.4893 Y-3.2955 I-0.1867 J0.0351
N5235 G1 X2.488 Y-3.2971
N5240 G2 X2.4028 Y-3.3548 I-0.1497 J0.1293
N5245 G1 X2.3928 Y-3.3582
N5250 G2 X2.2109 Y-3.3349 I-0.0674 J0.1954
N5255 X2.1664 Y-3.296 I0.1247 J0.1874
N5260 G1 X2.1661 Y-3.2956
N5265 G2 X2.1327 Y-3.2457 I0.1722 J0.1511
N5270 G1 X2.1325 Y-3.2452
N5275 G2 X2.1129 Y-3.1873 I0.2091 J0.103
N5280 G1 X2.1128 Y-3.1868
N5285 G2 X2.1089 Y-3.1248 I0.2326 J0.0459
N5290 G1 Y-3.1242
N5295 G2 X2.1214 Y-3.0623 I0.2405 J-0.0164
N5300 G1 X2.1216 Y-3.0618
N5305 G2 X2.1503 Y-3.0043 I0.2318 J-0.0797
N5310 G1 X2.1506 Y-3.0039
N5315 G2 X2.1939 Y-2.9551 I0.2065 J-0.1394
N5320 G1 X2.1943 Y-2.9547
N5325 G2 X2.2496 Y-2.9182 I0.1658 J-0.1912
N5330 G1 X2.2501 Y-2.918
N5335 G2 X2.314 Y-2.8968 I0.1122 J-0.2313
N5340 G1 X2.3145 Y-2.8967
N5345 G2 X2.3828 Y-2.8928 I0.049 J-0.2565
N5350 G1 X2.3833
N5355 G2 X2.4513 Y-2.9069 I-0.0196 J-0.2644
N5360 G1 X2.4518 Y-2.9071
N5365 G2 X2.5147 Y-2.9389 I-0.0889 J-0.254
N5370 G1 X2.5151 Y-2.9392
N5375 G2 X2.5684 Y-2.9869 I-0.154 J-0.2255
N5380 G1 X2.5688 Y-2.9873
N5385 G2 X2.6084 Y-3.0481 I-0.2103 J-0.1804
N5390 G1 X2.6099 Y-3.0512
N5395 G2 X2.6309 Y-3.1157 I-0.2338 J-0.112
N5400 G1 X2.6384 Y-3.156
N5405 G3 X2.0584 I-0.29 J0.
N5410 X2.6384 I0.29 J0.
N5415 X2.6297 Y-3.1441 I-0.0125 J0.
N5420 G1 X2.4676 Y-3.0929
N5425 G2 X2.459 Y-3.0826 I0.0038 J0.0119
N5430 G1 X2.4409 Y-2.9456
N5435 G3 X2.4343 Y-2.9362 I-0.0124 J-0.0016
N5440 X2.4432 Y-2.9414 Z-0.0657 I-0.0551 J-0.1052 F10.
N5445 X2.3484 Y-3.156 Z-0.08 I-0.0641 J-0.1
N5450 G1 X2.3518 Y-3.1569 F20.279
N5455 G2 X2.3555 Y-3.1613 I-0.0013 J-0.0049
N5460 G1 X2.3559 Y-3.1648
N5465 G2 X2.3532 Y-3.1741 I-0.0128 J-0.0014
N5470 G1 X2.3522 Y-3.1755
N5475 G2 X2.3425 Y-3.1816 I-0.0135 J0.0107
N5480 G1 X2.34 Y-3.1822
N5485 G2 X2.325 Y-3.1809 I-0.0056 J0.0241
N5490 G1 X2.3227 Y-3.18
N5495 G2 X2.308 Y-3.168 I0.0125 J0.0301
N5500 G1 X2.3067 Y-3.166
N5505 G2 X2.2999 Y-3.1441 I0.0338 J0.0225
N5510 G1 X2.2998 Y-3.1418
N5515 G2 X2.3068 Y-3.1159 I0.0486 J0.0009
N5520 G1 X2.3079 Y-3.1139
N5525 G2 X2.3304 Y-3.0929 I0.0485 J-0.0292
N5530 G1 X2.3324 Y-3.0918
N5535 G2 X2.3664 Y-3.0848 I0.0297 J-0.0573
N5540 G1 X2.3686 Y-3.0849
N5545 G2 X2.4052 Y-3.0978 I-0.0049 J-0.0723
N5550 G1 X2.407 Y-3.099
N5555 G2 X2.4342 Y-3.132 I-0.046 J-0.0659
N5560 G1 X2.4351 Y-3.1339
N5565 G2 X2.4423 Y-3.1801 I-0.0805 J-0.0362
N5570 G1 X2.4421 Y-3.1823
N5575 G2 X2.4232 Y-3.2294 I-0.0955 J0.0109
N5580 G1 X2.4219 Y-3.2311
N5585 G2 X2.3786 Y-3.2645 I-0.0829 J0.0627
N5590 G1 X2.3766 Y-3.2653
N5595 G2 X2.3183 Y-3.2726 I-0.0425 J0.1034
N5600 G1 X2.3162 Y-3.2723
N5605 G2 X2.2585 Y-3.2474 I0.0169 J0.1184
N5610 G1 X2.2569 Y-3.2461
N5615 G2 X2.2174 Y-3.1922 I0.0794 J0.0997
N5620 G1 X2.2166 Y-3.1903
N5625 G2 X2.2093 Y-3.1198 I0.1262 J0.0487
N5630 G1 X2.2096 Y-3.1178
N5635 G2 X2.2405 Y-3.0496 I0.1413 J-0.023
N5640 G1 X2.2419 Y-3.048
N5645 G2 X2.3062 Y-3.0024 I0.1164 J-0.0961
N5650 G1 X2.3082 Y-3.0017
N5655 G2 X2.3907 Y-2.9944 I0.0548 J-0.149
N5660 G1 X2.3927 Y-2.9947
N5665 G2 X2.4713 Y-3.0316 I-0.029 J-0.164
N5670 G1 X2.473 Y-3.033
N5675 G2 X2.5246 Y-3.1078 I-0.1127 J-0.1331
N5680 G1 X2.5253 Y-3.1097
N5685 G2 X2.5327 Y-3.2043 I-0.1717 J-0.0609
N5690 G1 X2.5323 Y-3.2064
N5695 G2 X2.4893 Y-3.2955 I-0.1867 J0.0351
N5700 G1 X2.488 Y-3.2971
N5705 G2 X2.4028 Y-3.3548 I-0.1497 J0.1293
N5710 G1 X2.3928 Y-3.3582
N5715 G2 X2.2109 Y-3.3349 I-0.0674 J0.1954
N5720 X2.1664 Y-3.296 I0.1247 J0.1874
N5725 G1 X2.1661 Y-3.2956
N5730 G2 X2.1327 Y-3.2457 I0.1722 J0.1511
N5735 G1 X2.1325 Y-3.2452
N5740 G2 X2.1129 Y-3.1873 I0.2091 J0.103
N5745 G1 X2.1128 Y-3.1868
N5750 G2 X2.1089 Y-3.1248 I0.2326 J0.0459
N5755 G1 Y-3.1242
N5760 G2 X2.1214 Y-3.0623 I0.2405 J-0.0164
N5765 G1 X2.1216 Y-3.0618
N5770 G2 X2.1503 Y-3.0043 I0.2318 J-0.0797
N5775 G1 X2.1506 Y-3.0039
N5780 G2 X2.1939 Y-2.9551 I0.2065 J-0.1394
N5785 G1 X2.1943 Y-2.9547
N5790 G2 X2.2496 Y-2.9182 I0.1658 J-0.1912
N5795 G1 X2.2501 Y-2.918
N5800 G2 X2.314 Y-2.8968 I0.1122 J-0.2313
N5805 G1 X2.3145 Y-2.8967
N5810 G2 X2.3828 Y-2.8928 I0.049 J-0.2565
N5815 G1 X2.3833
N5820 G2 X2.4513 Y-2.9069 I-0.0196 J-0.2644
N5825 G1 X2.4518 Y-2.9071
N5830 G2 X2.5147 Y-2.9389 I-0.0889 J-0.254
N5835 G1 X2.5151 Y-2.9392
N5840 G2 X2.5684 Y-2.9869 I-0.154 J-0.2255
N5845 G1 X2.5688 Y-2.9873
N5850 G2 X2.6084 Y-3.0481 I-0.2103 J-0.1804
N5855 G1 X2.6099 Y-3.0512
N5860 G2 X2.6309 Y-3.1157 I-0.2338 J-0.112
N5865 G1 X2.6384 Y-3.156
N5870 G3 X2.0584 I-0.29 J0.
N5875 X2.6384 I0.29 J0.
N5880 X2.6297 Y-3.1441 I-0.0125 J0.
N5885 G1 X2.4676 Y-3.0929
N5890 G2 X2.459 Y-3.0826 I0.0038 J0.0119
N5895 G1 X2.4409 Y-2.9456
N5900 G3 X2.4343 Y-2.9362 I-0.0124 J-0.0016
N5905 X2.4432 Y-2.9414 Z-0.1057 I-0.0551 J-0.1052 F10.
N5910 X2.3484 Y-3.156 Z-0.12 I-0.0641 J-0.1
N5915 G1 X2.3518 Y-3.1569 F20.279
N5920 G2 X2.3555 Y-3.1613 I-0.0013 J-0.0049
N5925 G1 X2.3559 Y-3.1648
N5930 G2 X2.3532 Y-3.1741 I-0.0128 J-0.0014
N5935 G1 X2.3522 Y-3.1755
N5940 G2 X2.3425 Y-3.1816 I-0.0135 J0.0107
N5945 G1 X2.34 Y-3.1822
N5950 G2 X2.325 Y-3.1809 I-0.0056 J0.0241
N5955 G1 X2.3227 Y-3.18
N5960 G2 X2.308 Y-3.168 I0.0125 J0.0301
N5965 G1 X2.3067 Y-3.166
N5970 G2 X2.2999 Y-3.1441 I0.0338 J0.0225
N5975 G1 X2.2998 Y-3.1418
N5980 G2 X2.3068 Y-3.1159 I0.0486 J0.0009
N5985 G1 X2.3079 Y-3.1139
N5990 G2 X2.3304 Y-3.0929 I0.0485 J-0.0292
N5995 G1 X2.3324 Y-3.0918
N6000 G2 X2.3664 Y-3.0848 I0.0297 J-0.0573
N6005 G1 X2.3686 Y-3.0849
N6010 G2 X2.4052 Y-3.0978 I-0.0049 J-0.0723
N6015 G1 X2.407 Y-3.099
N6020 G2 X2.4342 Y-3.132 I-0.046 J-0.0659
N6025 G1 X2.4351 Y-3.1339
N6030 G2 X2.4423 Y-3.1801 I-0.0805 J-0.0362
N6035 G1 X2.4421 Y-3.1823
N6040 G2 X2.4232 Y-3.2294 I-0.0955 J0.0109
N6045 G1 X2.4219 Y-3.2311
N6050 G2 X2.3786 Y-3.2645 I-0.0829 J0.0627
N6055 G1 X2.3766 Y-3.2653
N6060 G2 X2.3183 Y-3.2726 I-0.0425 J0.1034
N6065 G1 X2.3162 Y-3.2723
N6070 G2 X2.2585 Y-3.2474 I0.0169 J0.1184
N6075 G1 X2.2569 Y-3.2461
N6080 G2 X2.2174 Y-3.1922 I0.0794 J0.0997
N6085 G1 X2.2166 Y-3.1903
N6090 G2 X2.2093 Y-3.1198 I0.1262 J0.0487
N6095 G1 X2.2096 Y-3.1178
N6100 G2 X2.2405 Y-3.0496 I0.1413 J-0.023
N6105 G1 X2.2419 Y-3.048
N6110 G2 X2.3062 Y-3.0024 I0.1164 J-0.0961
N6115 G1 X2.3082 Y-3.0017
N6120 G2 X2.3907 Y-2.9944 I0.0548 J-0.149
N6125 G1 X2.3927 Y-2.9947
N6130 G2 X2.4713 Y-3.0316 I-0.029 J-0.164
N6135 G1 X2.473 Y-3.033
N6140 G2 X2.5246 Y-3.1078 I-0.1127 J-0.1331
N6145 G1 X2.5253 Y-3.1097
N6150 G2 X2.5327 Y-3.2043 I-0.1717 J-0.0609
N6155 G1 X2.5323 Y-3.2064
N6160 G2 X2.4893 Y-3.2955 I-0.1867 J0.0351
N6165 G1 X2.488 Y-3.2971
N6170 G2 X2.4028 Y-3.3548 I-0.1497 J0.1293
N6175 G1 X2.3928 Y-3.3582
N6180 G2 X2.2109 Y-3.3349 I-0.0674 J0.1954
N6185 X2.1664 Y-3.296 I0.1247 J0.1874
N6190 G1 X2.1661 Y-3.2956
N6195 G2 X2.1327 Y-3.2457 I0.1722 J0.1511
N6200 G1 X2.1325 Y-3.2452
N6205 G2 X2.1129 Y-3.1873 I0.2091 J0.103
N6210 G1 X2.1128 Y-3.1868
N6215 G2 X2.1089 Y-3.1248 I0.2326 J0.0459
N6220 G1 Y-3.1242
N6225 G2 X2.1214 Y-3.0623 I0.2405 J-0.0164
N6230 G1 X2.1216 Y-3.0618
N6235 G2 X2.1503 Y-3.0043 I0.2318 J-0.0797
N6240 G1 X2.1506 Y-3.0039
N6245 G2 X2.1939 Y-2.9551 I0.2065 J-0.1394
N6250 G1 X2.1943 Y-2.9547
N6255 G2 X2.2496 Y-2.9182 I0.1658 J-0.1912
N6260 G1 X2.2501 Y-2.918
N6265 G2 X2.314 Y-2.8968 I0.1122 J-0.2313
N6270 G1 X2.3145 Y-2.8967
N6275 G2 X2.3828 Y-2.8928 I0.049 J-0.2565
N6280 G1 X2.3833
N6285 G2 X2.4513 Y-2.9069 I-0.0196 J-0.2644
N6290 G1 X2.4518 Y-2.9071
N6295 G2 X2.5147 Y-2.9389 I-0.0889 J-0.254
N6300 G1 X2.5151 Y-2.9392
N6305 G2 X2.5684 Y-2.9869 I-0.154 J-0.2255
N6310 G1 X2.5688 Y-2.9873
N6315 G2 X2.6084 Y-3.0481 I-0.2103 J-0.1804
N6320 G1 X2.6099 Y-3.0512
N6325 G2 X2.6309 Y-3.1157 I-0.2338 J-0.112
N6330 G1 X2.6384 Y-3.156
N6335 G3 X2.0584 I-0.29 J0.
N6340 X2.6384 I0.29 J0.
N6345 X2.6297 Y-3.1441 I-0.0125 J0.
N6350 G1 X2.4676 Y-3.0929
N6355 G2 X2.459 Y-3.0826 I0.0038 J0.0119
N6360 G1 X2.4409 Y-2.9456
N6365 G3 X2.4343 Y-2.9362 I-0.0124 J-0.0016
N6370 X2.4432 Y-2.9414 Z-0.1457 I-0.0551 J-0.1052 F10.
N6375 X2.3484 Y-3.156 Z-0.16 I-0.0641 J-0.1
N6380 G1 X2.3518 Y-3.1569 F20.279
N6385 G2 X2.3555 Y-3.1613 I-0.0013 J-0.0049
N6390 G1 X2.3559 Y-3.1648
N6395 G2 X2.3532 Y-3.1741 I-0.0128 J-0.0014
N6400 G1 X2.3522 Y-3.1755
N6405 G2 X2.3425 Y-3.1816 I-0.0135 J0.0107
N6410 G1 X2.34 Y-3.1822
N6415 G2 X2.325 Y-3.1809 I-0.0056 J0.0241
N6420 G1 X2.3227 Y-3.18
N6425 G2 X2.308 Y-3.168 I0.0125 J0.0301
N6430 G1 X2.3067 Y-3.166
N6435 G2 X2.2999 Y-3.1441 I0.0338 J0.0225
N6440 G1 X2.2998 Y-3.1418
N6445 G2 X2.3068 Y-3.1159 I0.0486 J0.0009
N6450 G1 X2.3079 Y-3.1139
N6455 G2 X2.3304 Y-3.0929 I0.0485 J-0.0292
N6460 G1 X2.3324 Y-3.0918
N6465 G2 X2.3664 Y-3.0848 I0.0297 J-0.0573
N6470 G1 X2.3686 Y-3.0849
N6475 G2 X2.4052 Y-3.0978 I-0.0049 J-0.0723
N6480 G1 X2.407 Y-3.099
N6485 G2 X2.4342 Y-3.132 I-0.046 J-0.0659
N6490 G1 X2.4351 Y-3.1339
N6495 G2 X2.4423 Y-3.1801 I-0.0805 J-0.0362
N6500 G1 X2.4421 Y-3.1823
N6505 G2 X2.4232 Y-3.2294 I-0.0955 J0.0109
N6510 G1 X2.4219 Y-3.2311
N6515 G2 X2.3786 Y-3.2645 I-0.0829 J0.0627
N6520 G1 X2.3766 Y-3.2653
N6525 G2 X2.3183 Y-3.2726 I-0.0425 J0.1034
N6530 G1 X2.3162 Y-3.2723
N6535 G2 X2.2585 Y-3.2474 I0.0169 J0.1184
N6540 G1 X2.2569 Y-3.2461
N6545 G2 X2.2174 Y-3.1922 I0.0794 J0.0997
N6550 G1 X2.2166 Y-3.1903
N6555 G2 X2.2093 Y-3.1198 I0.1262 J0.0487
N6560 G1 X2.2096 Y-3.1178
N6565 G2 X2.2405 Y-3.0496 I0.1413 J-0.023
N6570 G1 X2.2419 Y-3.048
N6575 G2 X2.3062 Y-3.0024 I0.1164 J-0.0961
N6580 G1 X2.3082 Y-3.0017
N6585 G2 X2.3907 Y-2.9944 I0.0548 J-0.149
N6590 G1 X2.3927 Y-2.9947
N6595 G2 X2.4713 Y-3.0316 I-0.029 J-0.164
N6600 G1 X2.473 Y-3.033
N6605 G2 X2.5246 Y-3.1078 I-0.1127 J-0.1331
N6610 G1 X2.5253 Y-3.1097
N6615 G2 X2.5327 Y-3.2043 I-0.1717 J-0.0609
N6620 G1 X2.5323 Y-3.2064
N6625 G2 X2.4893 Y-3.2955 I-0.1867 J0.0351
N6630 G1 X2.488 Y-3.2971
N6635 G2 X2.4028 Y-3.3548 I-0.1497 J0.1293
N6640 G1 X2.3928 Y-3.3582
N6645 G2 X2.2109 Y-3.3349 I-0.0674 J0.1954
N6650 X2.1664 Y-3.296 I0.1247 J0.1874
N6655 G1 X2.1661 Y-3.2956
N6660 G2 X2.1327 Y-3.2457 I0.1722 J0.1511
N6665 G1 X2.1325 Y-3.2452
N6670 G2 X2.1129 Y-3.1873 I0.2091 J0.103
N6675 G1 X2.1128 Y-3.1868
N6680 G2 X2.1089 Y-3.1248 I0.2326 J0.0459
N6685 G1 Y-3.1242
N6690 G2 X2.1214 Y-3.0623 I0.2405 J-0.0164
N6695 G1 X2.1216 Y-3.0618
N6700 G2 X2.1503 Y-3.0043 I0.2318 J-0.0797
N6705 G1 X2.1506 Y-3.0039
N6710 G2 X2.1939 Y-2.9551 I0.2065 J-0.1394
N6715 G1 X2.1943 Y-2.9547
N6720 G2 X2.2496 Y-2.9182 I0.1658 J-0.1912
N6725 G1 X2.2501 Y-2.918
N6730 G2 X2.314 Y-2.8968 I0.1122 J-0.2313
N6735 G1 X2.3145 Y-2.8967
N6740 G2 X2.3828 Y-2.8928 I0.049 J-0.2565
N6745 G1 X2.3833
N6750 G2 X2.4513 Y-2.9069 I-0.0196 J-0.2644
N6755 G1 X2.4518 Y-2.9071
N6760 G2 X2.5147 Y-2.9389 I-0.0889 J-0.254
N6765 G1 X2.5151 Y-2.9392
N6770 G2 X2.5684 Y-2.9869 I-0.154 J-0.2255
N6775 G1 X2.5688 Y-2.9873
N6780 G2 X2.6084 Y-3.0481 I-0.2103 J-0.1804
N6785 G1 X2.6099 Y-3.0512
N6790 G2 X2.6309 Y-3.1157 I-0.2338 J-0.112
N6795 G1 X2.6384 Y-3.156
N6800 G3 X2.0584 I-0.29 J0.
N6805 X2.6384 I0.29 J0.
N6810 X2.6297 Y-3.1441 I-0.0125 J0.
N6815 G1 X2.4676 Y-3.0929
N6820 G2 X2.459 Y-3.0826 I0.0038 J0.0119
N6825 G1 X2.4409 Y-2.9456
N6830 G3 X2.4343 Y-2.9362 I-0.0124 J-0.0016
N6835 X2.4432 Y-2.9414 Z-0.1857 I-0.0551 J-0.1052 F10.
N6840 X2.3484 Y-3.156 Z-0.2 I-0.0641 J-0.1
N6845 G1 X2.3518 Y-3.1569 F20.279
N6850 G2 X2.3555 Y-3.1613 I-0.0013 J-0.0049
N6855 G1 X2.3559 Y-3.1648
N6860 G2 X2.3532 Y-3.1741 I-0.0128 J-0.0014
N6865 G1 X2.3522 Y-3.1755
N6870 G2 X2.3425 Y-3.1816 I-0.0135 J0.0107
N6875 G1 X2.34 Y-3.1822
N6880 G2 X2.325 Y-3.1809 I-0.0056 J0.0241
N6885 G1 X2.3227 Y-3.18
N6890 G2 X2.308 Y-3.168 I0.0125 J0.0301
N6895 G1 X2.3067 Y-3.166
N6900 G2 X2.2999 Y-3.1441 I0.0338 J0.0225
N6905 G1 X2.2998 Y-3.1418
N6910 G2 X2.3068 Y-3.1159 I0.0486 J0.0009
N6915 G1 X2.3079 Y-3.1139
N6920 G2 X2.3304 Y-3.0929 I0.0485 J-0.0292
N6925 G1 X2.3324 Y-3.0918
N6930 G2 X2.3664 Y-3.0848 I0.0297 J-0.0573
N6935 G1 X2.3686 Y-3.0849
N6940 G2 X2.4052 Y-3.0978 I-0.0049 J-0.0723
N6945 G1 X2.407 Y-3.099
N6950 G2 X2.4342 Y-3.132 I-0.046 J-0.0659
N6955 G1 X2.4351 Y-3.1339
N6960 G2 X2.4423 Y-3.1801 I-0.0805 J-0.0362
N6965 G1 X2.4421 Y-3.1823
N6970 G2 X2.4232 Y-3.2294 I-0.0955 J0.0109
N6975 G1 X2.4219 Y-3.2311
N6980 G2 X2.3786 Y-3.2645 I-0.0829 J0.0627
N6985 G1 X2.3766 Y-3.2653
N6990 G2 X2.3183 Y-3.2726 I-0.0425 J0.1034
N6995 G1 X2.3162 Y-3.2723
N7000 G2 X2.2585 Y-3.2474 I0.0169 J0.1184
N7005 G1 X2.2569 Y-3.2461
N7010 G2 X2.2174 Y-3.1922 I0.0794 J0.0997
N7015 G1 X2.2166 Y-3.1903
N7020 G2 X2.2093 Y-3.1198 I0.1262 J0.0487
N7025 G1 X2.2096 Y-3.1178
N7030 G2 X2.2405 Y-3.0496 I0.1413 J-0.023
N7035 G1 X2.2419 Y-3.048
N7040 G2 X2.3062 Y-3.0024 I0.1164 J-0.0961
N7045 G1 X2.3082 Y-3.0017
N7050 G2 X2.3907 Y-2.9944 I0.0548 J-0.149
N7055 G1 X2.3927 Y-2.9947
N7060 G2 X2.4713 Y-3.0316 I-0.029 J-0.164
N7065 G1 X2.473 Y-3.033
N7070 G2 X2.5246 Y-3.1078 I-0.1127 J-0.1331
N7075 G1 X2.5253 Y-3.1097
N7080 G2 X2.5327 Y-3.2043 I-0.1717 J-0.0609
N7085 G1 X2.5323 Y-3.2064
N7090 G2 X2.4893 Y-3.2955 I-0.1867 J0.0351
N7095 G1 X2.488 Y-3.2971
N7100 G2 X2.4028 Y-3.3548 I-0.1497 J0.1293
N7105 G1 X2.3928 Y-3.3582
N7110 G2 X2.2109 Y-3.3349 I-0.0674 J0.1954
N7115 X2.1664 Y-3.296 I0.1247 J0.1874
N7120 G1 X2.1661 Y-3.2956
N7125 G2 X2.1327 Y-3.2457 I0.1722 J0.1511
N7130 G1 X2.1325 Y-3.2452
N7135 G2 X2.1129 Y-3.1873 I0.2091 J0.103
N7140 G1 X2.1128 Y-3.1868
N7145 G2 X2.1089 Y-3.1248 I0.2326 J0.0459
N7150 G1 Y-3.1242
N7155 G2 X2.1214 Y-3.0623 I0.2405 J-0.0164
N7160 G1 X2.1216 Y-3.0618
N7165 G2 X2.1503 Y-3.0043 I0.2318 J-0.0797
N7170 G1 X2.1506 Y-3.0039
N7175 G2 X2.1939 Y-2.9551 I0.2065 J-0.1394
N7180 G1 X2.1943 Y-2.9547
N7185 G2 X2.2496 Y-2.9182 I0.1658 J-0.1912
N7190 G1 X2.2501 Y-2.918
N7195 G2 X2.314 Y-2.8968 I0.1122 J-0.2313
N7200 G1 X2.3145 Y-2.8967
N7205 G2 X2.3828 Y-2.8928 I0.049 J-0.2565
N7210 G1 X2.3833
N7215 G2 X2.4513 Y-2.9069 I-0.0196 J-0.2644
N7220 G1 X2.4518 Y-2.9071
N7225 G2 X2.5147 Y-2.9389 I-0.0889 J-0.254
N7230 G1 X2.5151 Y-2.9392
N7235 G2 X2.5684 Y-2.9869 I-0.154 J-0.2255
N7240 G1 X2.5688 Y-2.9873
N7245 G2 X2.6084 Y-3.0481 I-0.2103 J-0.1804
N7250 G1 X2.6099 Y-3.0512
N7255 G2 X2.6309 Y-3.1157 I-0.2338 J-0.112
N7260 G1 X2.6384 Y-3.156
N7265 G3 X2.0584 I-0.29 J0.
N7270 X2.6384 I0.29 J0.
N7275 X2.6275 Y-3.1436 I-0.0125 J0.
N7280 G1 X2.4426 Y-3.1203
N7285 G3 X2.4288 Y-3.13 I-0.0016 J-0.0124
N7290 X2.4315 Y-3.12 Z-0.2257 I0.1159 J-0.026 F10.
N7295 X2.6634 Y-3.156 Z-0.24 I0.1131 J-0.036
N7300 X2.6622 Y-3.1835 I-0.315 J0. F20.279
N7305 X2.0337 Y-3.1423 I-0.3138 J0.0275
N7310 X2.6634 Y-3.156 I0.3147 J-0.0137
N7315 X2.6622 Y-3.1484 Z-0.2388 I-0.025 J0. F15.279
N7320 X2.6592 Y-3.1422 Z-0.2352 I-0.0238 J-0.0076
N7325 X2.6557 Y-3.138 Z-0.2297 I-0.0208 J-0.0139
N7330 X2.6529 Y-3.1357 Z-0.2227 I-0.0173 J-0.0181
N7335 X2.6519 Y-3.135 Z-0.215 I-0.0145 J-0.0204
N7340 G0 Z0.2
N7345 G1 X3.9347 Y-2.9291 F500.
N7350 Z0.125 F15.279
N7355 G3 X3.9336 Y-2.9295 Z0.1174 I0.0387 J-0.1123 F10.
N7360 X3.9304 Y-2.9306 Z0.1106 I0.0398 J-0.1119
N7365 X3.9255 Y-2.9327 Z0.1051 I0.043 J-0.1107
N7370 X3.9194 Y-2.9356 Z0.1014 I0.0479 J-0.1087
N7375 X3.9128 Y-2.9392 Z0.1 I0.054 J-0.1058
N7380 X3.922 Y-2.9343 Z0.0743 I0.0606 J-0.1022
N7385 X3.9315 Y-2.9302 Z0.0486 I0.0514 J-0.107
N7390 X3.9413 Y-2.927 Z0.0229 I0.0419 J-0.1111
N7395 X3.9514 Y-2.9246 Z-0.0028 I0.0321 J-0.1143
N7400 X3.9617 Y-2.9232 Z-0.0285 I0.022 J-0.1167
N7405 X3.9426 Y-3.156 Z-0.04 I0.0117 J-0.1182
N7410 G1 X3.946 Y-3.1569 F20.279
N7415 G2 X3.9498 Y-3.1613 I-0.0013 J-0.0049
N7420 G1 X3.9501 Y-3.1648
N7425 G2 X3.9474 Y-3.1741 I-0.0128 J-0.0014
N7430 G1 X3.9464 Y-3.1755
N7435 G2 X3.9367 Y-3.1816 I-0.0135 J0.0107
N7440 G1 X3.9342 Y-3.1822
N7445 G2 X3.9192 Y-3.1809 I-0.0056 J0.0241
N7450 G1 X3.9169 Y-3.18
N7455 G2 X3.9023 Y-3.168 I0.0125 J0.0301
N7460 G1 X3.9009 Y-3.166
N7465 G2 X3.8941 Y-3.1441 I0.0338 J0.0225
N7470 G1 Y-3.1418
N7475 G2 X3.901 Y-3.1159 I0.0486 J0.0009
N7480 G1 X3.9022 Y-3.1139
N7485 G2 X3.9246 Y-3.0929 I0.0485 J-0.0292
N7490 G1 X3.9266 Y-3.0918
N7495 G2 X3.9606 Y-3.0848 I0.0297 J-0.0573
N7500 G1 X3.9629 Y-3.0849
N7505 G2 X3.9994 Y-3.0978 I-0.0049 J-0.0723
N7510 G1 X4.0012 Y-3.099
N7515 G2 X4.0285 Y-3.132 I-0.046 J-0.0659
N7520 G1 X4.0294 Y-3.1339
N7525 G2 X4.0366 Y-3.1801 I-0.0805 J-0.0362
N7530 G1 X4.0363 Y-3.1823
N7535 G2 X4.0175 Y-3.2294 I-0.0955 J0.0109
N7540 G1 X4.0162 Y-3.2311
N7545 G2 X3.9728 Y-3.2645 I-0.0829 J0.0627
N7550 G1 X3.9708 Y-3.2653
N7555 G2 X3.9125 Y-3.2726 I-0.0425 J0.1034
N7560 G1 X3.9104 Y-3.2723
N7565 G2 X3.8528 Y-3.2474 I0.0169 J0.1184
N7570 G1 X3.8511 Y-3.2461
N7575 G2 X3.8116 Y-3.1922 I0.0794 J0.0997
N7580 G1 X3.8108 Y-3.1903
N7585 G2 X3.8035 Y-3.1198 I0.1262 J0.0487
N7590 G1 X3.8039 Y-3.1178
N7595 G2 X3.8348 Y-3.0496 I0.1413 J-0.023
N7600 G1 X3.8361 Y-3.048
N7605 G2 X3.9004 Y-3.0024 I0.1164 J-0.0961
N7610 G1 X3.9024 Y-3.0017
N7615 G2 X3.9849 Y-2.9944 I0.0548 J-0.149
N7620 G1 X3.987 Y-2.9947
N7625 G2 X4.0656 Y-3.0316 I-0.029 J-0.164
N7630 G1 X4.0672 Y-3.033
N7635 G2 X4.1188 Y-3.1078 I-0.1127 J-0.1331
N7640 G1 X4.1195 Y-3.1097
N7645 G2 X4.1269 Y-3.2043 I-0.1717 J-0.0609
N7650 G1 X4.1265 Y-3.2064
N7655 G2 X4.0836 Y-3.2955 I-0.1867 J0.0351
N7660 G1 X4.0822 Y-3.2971
N7665 G2 X3.997 Y-3.3548 I-0.1497 J0.1293
N7670 G1 X3.987 Y-3.3582
N7675 G2 X3.8051 Y-3.3349 I-0.0674 J0.1954
N7680 X3.7607 Y-3.296 I0.1247 J0.1874
N7685 G1 X3.7603 Y-3.2956
N7690 G2 X3.7269 Y-3.2457 I0.1722 J0.1511
N7695 G1 X3.7267 Y-3.2452
N7700 G2 X3.7071 Y-3.1873 I0.2091 J0.103
N7705 G1 X3.707 Y-3.1868
N7710 G2 X3.7031 Y-3.1248 I0.2326 J0.0459
N7715 G1 Y-3.1242
N7720 G2 X3.7157 Y-3.0623 I0.2405 J-0.0164
N7725 G1 X3.7158 Y-3.0618
N7730 G2 X3.7445 Y-3.0043 I0.2318 J-0.0797
N7735 G1 X3.7448 Y-3.0039
N7740 G2 X3.7881 Y-2.9551 I0.2065 J-0.1394
N7745 G1 X3.7885 Y-2.9547
N7750 G2 X3.8438 Y-2.9182 I0.1658 J-0.1912
N7755 G1 X3.8443 Y-2.918
N7760 G2 X3.9082 Y-2.8968 I0.1122 J-0.2313
N7765 G1 X3.9088 Y-2.8967
N7770 G2 X3.977 Y-2.8928 I0.049 J-0.2565
N7775 G1 X3.9776
N7780 G2 X4.0455 Y-2.9069 I-0.0196 J-0.2644
N7785 G1 X4.046 Y-2.9071
N7790 G2 X4.1089 Y-2.9389 I-0.0889 J-0.254
N7795 G1 X4.1094 Y-2.9392
N7800 G2 X4.1626 Y-2.9869 I-0.154 J-0.2255
N7805 G1 X4.163 Y-2.9873
N7810 G2 X4.2026 Y-3.0481 I-0.2103 J-0.1804
N7815 G1 X4.2041 Y-3.0512
N7820 G2 X4.2251 Y-3.1157 I-0.2338 J-0.112
N7825 G1 X4.2326 Y-3.156
N7830 G3 X3.6526 I-0.29 J0.
N7835 X4.2326 I0.29 J0.
N7840 X4.2239 Y-3.1441 I-0.0125 J0.
N7845 G1 X4.0619 Y-3.0929
N7850 G2 X4.0532 Y-3.0826 I0.0038 J0.0119
N7855 G1 X4.0351 Y-2.9456
N7860 G3 X4.0285 Y-2.9362 I-0.0124 J-0.0016
N7865 X4.0375 Y-2.9414 Z-0.0657 I-0.0551 J-0.1052 F10.
N7870 X3.9426 Y-3.156 Z-0.08 I-0.0641 J-0.1
N7875 G1 X3.946 Y-3.1569 F20.279
N7880 G2 X3.9498 Y-3.1613 I-0.0013 J-0.0049
N7885 G1 X3.9501 Y-3.1648
N7890 G2 X3.9474 Y-3.1741 I-0.0128 J-0.0014
N7895 G1 X3.9464 Y-3.1755
N7900 G2 X3.9367 Y-3.1816 I-0.0135 J0.0107
N7905 G1 X3.9342 Y-3.1822
N7910 G2 X3.9192 Y-3.1809 I-0.0056 J0.0241
N7915 G1 X3.9169 Y-3.18
N7920 G2 X3.9023 Y-3.168 I0.0125 J0.0301
N7925 G1 X3.9009 Y-3.166
N7930 G2 X3.8941 Y-3.1441 I0.0338 J0.0225
N7935 G1 Y-3.1418
N7940 G2 X3.901 Y-3.1159 I0.0486 J0.0009
N7945 G1 X3.9022 Y-3.1139
N7950 G2 X3.9246 Y-3.0929 I0.0485 J-0.0292
N7955 G1 X3.9266 Y-3.0918
N7960 G2 X3.9606 Y-3.0848 I0.0297 J-0.0573
N7965 G1 X3.9629 Y-3.0849
N7970 G2 X3.9994 Y-3.0978 I-0.0049 J-0.0723
N7975 G1 X4.0012 Y-3.099
N7980 G2 X4.0285 Y-3.132 I-0.046 J-0.0659
N7985 G1 X4.0294 Y-3.1339
N7990 G2 X4.0366 Y-3.1801 I-0.0805 J-0.0362
N7995 G1 X4.0363 Y-3.1823
N8000 G2 X4.0175 Y-3.2294 I-0.0955 J0.0109
N8005 G1 X4.0162 Y-3.2311
N8010 G2 X3.9728 Y-3.2645 I-0.0829 J0.0627
N8015 G1 X3.9708 Y-3.2653
N8020 G2 X3.9125 Y-3.2726 I-0.0425 J0.1034
N8025 G1 X3.9104 Y-3.2723
N8030 G2 X3.8528 Y-3.2474 I0.0169 J0.1184
N8035 G1 X3.8511 Y-3.2461
N8040 G2 X3.8116 Y-3.1922 I0.0794 J0.0997
N8045 G1 X3.8108 Y-3.1903
N8050 G2 X3.8035 Y-3.1198 I0.1262 J0.0487
N8055 G1 X3.8039 Y-3.1178
N8060 G2 X3.8348 Y-3.0496 I0.1413 J-0.023
N8065 G1 X3.8361 Y-3.048
N8070 G2 X3.9004 Y-3.0024 I0.1164 J-0.0961
N8075 G1 X3.9024 Y-3.0017
N8080 G2 X3.9849 Y-2.9944 I0.0548 J-0.149
N8085 G1 X3.987 Y-2.9947
N8090 G2 X4.0656 Y-3.0316 I-0.029 J-0.164
N8095 G1 X4.0672 Y-3.033
N8100 G2 X4.1188 Y-3.1078 I-0.1127 J-0.1331
N8105 G1 X4.1195 Y-3.1097
N8110 G2 X4.1269 Y-3.2043 I-0.1717 J-0.0609
N8115 G1 X4.1265 Y-3.2064
N8120 G2 X4.0836 Y-3.2955 I-0.1867 J0.0351
N8125 G1 X4.0822 Y-3.2971
N8130 G2 X3.997 Y-3.3548 I-0.1497 J0.1293
N8135 G1 X3.987 Y-3.3582
N8140 G2 X3.8051 Y-3.3349 I-0.0674 J0.1954
N8145 X3.7607 Y-3.296 I0.1247 J0.1874
N8150 G1 X3.7603 Y-3.2956
N8155 G2 X3.7269 Y-3.2457 I0.1722 J0.1511
N8160 G1 X3.7267 Y-3.2452
N8165 G2 X3.7071 Y-3.1873 I0.2091 J0.103
N8170 G1 X3.707 Y-3.1868
N8175 G2 X3.7031 Y-3.1248 I0.2326 J0.0459
N8180 G1 Y-3.1242
N8185 G2 X3.7157 Y-3.0623 I0.2405 J-0.0164
N8190 G1 X3.7158 Y-3.0618
N8195 G2 X3.7445 Y-3.0043 I0.2318 J-0.0797
N8200 G1 X3.7448 Y-3.0039
N8205 G2 X3.7881 Y-2.9551 I0.2065 J-0.1394
N8210 G1 X3.7885 Y-2.9547
N8215 G2 X3.8438 Y-2.9182 I0.1658 J-0.1912
N8220 G1 X3.8443 Y-2.918
N8225 G2 X3.9082 Y-2.8968 I0.1122 J-0.2313
N8230 G1 X3.9088 Y-2.8967
N8235 G2 X3.977 Y-2.8928 I0.049 J-0.2565
N8240 G1 X3.9776
N8245 G2 X4.0455 Y-2.9069 I-0.0196 J-0.2644
N8250 G1 X4.046 Y-2.9071
N8255 G2 X4.1089 Y-2.9389 I-0.0889 J-0.254
N8260 G1 X4.1094 Y-2.9392
N8265 G2 X4.1626 Y-2.9869 I-0.154 J-0.2255
N8270 G1 X4.163 Y-2.9873
N8275 G2 X4.2026 Y-3.0481 I-0.2103 J-0.1804
N8280 G1 X4.2041 Y-3.0512
N8285 G2 X4.2251 Y-3.1157 I-0.2338 J-0.112
N8290 G1 X4.2326 Y-3.156
N8295 G3 X3.6526 I-0.29 J0.
N8300 X4.2326 I0.29 J0.
N8305 X4.2239 Y-3.1441 I-0.0125 J0.
N8310 G1 X4.0619 Y-3.0929
N8315 G2 X4.0532 Y-3.0826 I0.0038 J0.0119
N8320 G1 X4.0351 Y-2.9456
N8325 G3 X4.0285 Y-2.9362 I-0.0124 J-0.0016
N8330 X4.0375 Y-2.9414 Z-0.1057 I-0.0551 J-0.1052 F10.
N8335 X3.9426 Y-3.156 Z-0.12 I-0.0641 J-0.1
N8340 G1 X3.946 Y-3.1569 F20.279
N8345 G2 X3.9498 Y-3.1613 I-0.0013 J-0.0049
N8350 G1 X3.9501 Y-3.1648
N8355 G2 X3.9474 Y-3.1741 I-0.0128 J-0.0014
N8360 G1 X3.9464 Y-3.1755
N8365 G2 X3.9367 Y-3.1816 I-0.0135 J0.0107
N8370 G1 X3.9342 Y-3.1822
N8375 G2 X3.9192 Y-3.1809 I-0.0056 J0.0241
N8380 G1 X3.9169 Y-3.18
N8385 G2 X3.9023 Y-3.168 I0.0125 J0.0301
N8390 G1 X3.9009 Y-3.166
N8395 G2 X3.8941 Y-3.1441 I0.0338 J0.0225
N8400 G1 Y-3.1418
N8405 G2 X3.901 Y-3.1159 I0.0486 J0.0009
N8410 G1 X3.9022 Y-3.1139
N8415 G2 X3.9246 Y-3.0929 I0.0485 J-0.0292
N8420 G1 X3.9266 Y-3.0918
N8425 G2 X3.9606 Y-3.0848 I0.0297 J-0.0573
N8430 G1 X3.9629 Y-3.0849
N8435 G2 X3.9994 Y-3.0978 I-0.0049 J-0.0723
N8440 G1 X4.0012 Y-3.099
N8445 G2 X4.0285 Y-3.132 I-0.046 J-0.0659
N8450 G1 X4.0294 Y-3.1339
N8455 G2 X4.0366 Y-3.1801 I-0.0805 J-0.0362
N8460 G1 X4.0363 Y-3.1823
N8465 G2 X4.0175 Y-3.2294 I-0.0955 J0.0109
N8470 G1 X4.0162 Y-3.2311
N8475 G2 X3.9728 Y-3.2645 I-0.0829 J0.0627
N8480 G1 X3.9708 Y-3.2653
N8485 G2 X3.9125 Y-3.2726 I-0.0425 J0.1034
N8490 G1 X3.9104 Y-3.2723
N8495 G2 X3.8528 Y-3.2474 I0.0169 J0.1184
N8500 G1 X3.8511 Y-3.2461
N8505 G2 X3.8116 Y-3.1922 I0.0794 J0.0997
N8510 G1 X3.8108 Y-3.1903
N8515 G2 X3.8035 Y-3.1198 I0.1262 J0.0487
N8520 G1 X3.8039 Y-3.1178
N8525 G2 X3.8348 Y-3.0496 I0.1413 J-0.023
N8530 G1 X3.8361 Y-3.048
N8535 G2 X3.9004 Y-3.0024 I0.1164 J-0.0961
N8540 G1 X3.9024 Y-3.0017
N8545 G2 X3.9849 Y-2.9944 I0.0548 J-0.149
N8550 G1 X3.987 Y-2.9947
N8555 G2 X4.0656 Y-3.0316 I-0.029 J-0.164
N8560 G1 X4.0672 Y-3.033
N8565 G2 X4.1188 Y-3.1078 I-0.1127 J-0.1331
N8570 G1 X4.1195 Y-3.1097
N8575 G2 X4.1269 Y-3.2043 I-0.1717 J-0.0609
N8580 G1 X4.1265 Y-3.2064
N8585 G2 X4.0836 Y-3.2955 I-0.1867 J0.0351
N8590 G1 X4.0822 Y-3.2971
N8595 G2 X3.997 Y-3.3548 I-0.1497 J0.1293
N8600 G1 X3.987 Y-3.3582
N8605 G2 X3.8051 Y-3.3349 I-0.0674 J0.1954
N8610 X3.7607 Y-3.296 I0.1247 J0.1874
N8615 G1 X3.7603 Y-3.2956
N8620 G2 X3.7269 Y-3.2457 I0.1722 J0.1511
N8625 G1 X3.7267 Y-3.2452
N8630 G2 X3.7071 Y-3.1873 I0.2091 J0.103
N8635 G1 X3.707 Y-3.1868
N8640 G2 X3.7031 Y-3.1248 I0.2326 J0.0459
N8645 G1 Y-3.1242
N8650 G2 X3.7157 Y-3.0623 I0.2405 J-0.0164
N8655 G1 X3.7158 Y-3.0618
N8660 G2 X3.7445 Y-3.0043 I0.2318 J-0.0797
N8665 G1 X3.7448 Y-3.0039
N8670 G2 X3.7881 Y-2.9551 I0.2065 J-0.1394
N8675 G1 X3.7885 Y-2.9547
N8680 G2 X3.8438 Y-2.9182 I0.1658 J-0.1912
N8685 G1 X3.8443 Y-2.918
N8690 G2 X3.9082 Y-2.8968 I0.1122 J-0.2313
N8695 G1 X3.9088 Y-2.8967
N8700 G2 X3.977 Y-2.8928 I0.049 J-0.2565
N8705 G1 X3.9776
N8710 G2 X4.0455 Y-2.9069 I-0.0196 J-0.2644
N8715 G1 X4.046 Y-2.9071
N8720 G2 X4.1089 Y-2.9389 I-0.0889 J-0.254
N8725 G1 X4.1094 Y-2.9392
N8730 G2 X4.1626 Y-2.9869 I-0.154 J-0.2255
N8735 G1 X4.163 Y-2.9873
N8740 G2 X4.2026 Y-3.0481 I-0.2103 J-0.1804
N8745 G1 X4.2041 Y-3.0512
N8750 G2 X4.2251 Y-3.1157 I-0.2338 J-0.112
N8755 G1 X4.2326 Y-3.156
N8760 G3 X3.6526 I-0.29 J0.
N8765 X4.2326 I0.29 J0.
N8770 X4.2239 Y-3.1441 I-0.0125 J0.
N8775 G1 X4.0619 Y-3.0929
N8780 G2 X4.0532 Y-3.0826 I0.0038 J0.0119
N8785 G1 X4.0351 Y-2.9456
N8790 G3 X4.0285 Y-2.9362 I-0.0124 J-0.0016
N8795 X4.0375 Y-2.9414 Z-0.1457 I-0.0551 J-0.1052 F10.
N8800 X3.9426 Y-3.156 Z-0.16 I-0.0641 J-0.1
N8805 G1 X3.946 Y-3.1569 F20.279
N8810 G2 X3.9498 Y-3.1613 I-0.0013 J-0.0049
N8815 G1 X3.9501 Y-3.1648
N8820 G2 X3.9474 Y-3.1741 I-0.0128 J-0.0014
N8825 G1 X3.9464 Y-3.1755
N8830 G2 X3.9367 Y-3.1816 I-0.0135 J0.0107
N8835 G1 X3.9342 Y-3.1822
N8840 G2 X3.9192 Y-3.1809 I-0.0056 J0.0241
N8845 G1 X3.9169 Y-3.18
N8850 G2 X3.9023 Y-3.168 I0.0125 J0.0301
N8855 G1 X3.9009 Y-3.166
N8860 G2 X3.8941 Y-3.1441 I0.0338 J0.0225
N8865 G1 Y-3.1418
N8870 G2 X3.901 Y-3.1159 I0.0486 J0.0009
N8875 G1 X3.9022 Y-3.1139
N8880 G2 X3.9246 Y-3.0929 I0.0485 J-0.0292
N8885 G1 X3.9266 Y-3.0918
N8890 G2 X3.9606 Y-3.0848 I0.0297 J-0.0573
N8895 G1 X3.9629 Y-3.0849
N8900 G2 X3.9994 Y-3.0978 I-0.0049 J-0.0723
N8905 G1 X4.0012 Y-3.099
N8910 G2 X4.0285 Y-3.132 I-0.046 J-0.0659
N8915 G1 X4.0294 Y-3.1339
N8920 G2 X4.0366 Y-3.1801 I-0.0805 J-0.0362
N8925 G1 X4.0363 Y-3.1823
N8930 G2 X4.0175 Y-3.2294 I-0.0955 J0.0109
N8935 G1 X4.0162 Y-3.2311
N8940 G2 X3.9728 Y-3.2645 I-0.0829 J0.0627
N8945 G1 X3.9708 Y-3.2653
N8950 G2 X3.9125 Y-3.2726 I-0.0425 J0.1034
N8955 G1 X3.9104 Y-3.2723
N8960 G2 X3.8528 Y-3.2474 I0.0169 J0.1184
N8965 G1 X3.8511 Y-3.2461
N8970 G2 X3.8116 Y-3.1922 I0.0794 J0.0997
N8975 G1 X3.8108 Y-3.1903
N8980 G2 X3.8035 Y-3.1198 I0.1262 J0.0487
N8985 G1 X3.8039 Y-3.1178
N8990 G2 X3.8348 Y-3.0496 I0.1413 J-0.023
N8995 G1 X3.8361 Y-3.048
N9000 G2 X3.9004 Y-3.0024 I0.1164 J-0.0961
N9005 G1 X3.9024 Y-3.0017
N9010 G2 X3.9849 Y-2.9944 I0.0548 J-0.149
N9015 G1 X3.987 Y-2.9947
N9020 G2 X4.0656 Y-3.0316 I-0.029 J-0.164
N9025 G1 X4.0672 Y-3.033
N9030 G2 X4.1188 Y-3.1078 I-0.1127 J-0.1331
N9035 G1 X4.1195 Y-3.1097
N9040 G2 X4.1269 Y-3.2043 I-0.1717 J-0.0609
N9045 G1 X4.1265 Y-3.2064
N9050 G2 X4.0836 Y-3.2955 I-0.1867 J0.0351
N9055 G1 X4.0822 Y-3.2971
N9060 G2 X3.997 Y-3.3548 I-0.1497 J0.1293
N9065 G1 X3.987 Y-3.3582
N9070 G2 X3.8051 Y-3.3349 I-0.0674 J0.1954
N9075 X3.7607 Y-3.296 I0.1247 J0.1874
N9080 G1 X3.7603 Y-3.2956
N9085 G2 X3.7269 Y-3.2457 I0.1722 J0.1511
N9090 G1 X3.7267 Y-3.2452
N9095 G2 X3.7071 Y-3.1873 I0.2091 J0.103
N9100 G1 X3.707 Y-3.1868
N9105 G2 X3.7031 Y-3.1248 I0.2326 J0.0459
N9110 G1 Y-3.1242
N9115 G2 X3.7157 Y-3.0623 I0.2405 J-0.0164
N9120 G1 X3.7158 Y-3.0618
N9125 G2 X3.7445 Y-3.0043 I0.2318 J-0.0797
N9130 G1 X3.7448 Y-3.0039
N9135 G2 X3.7881 Y-2.9551 I0.2065 J-0.1394
N9140 G1 X3.7885 Y-2.9547
N9145 G2 X3.8438 Y-2.9182 I0.1658 J-0.1912
N9150 G1 X3.8443 Y-2.918
N9155 G2 X3.9082 Y-2.8968 I0.1122 J-0.2313
N9160 G1 X3.9088 Y-2.8967
N9165 G2 X3.977 Y-2.8928 I0.049 J-0.2565
N9170 G1 X3.9776
N9175 G2 X4.0455 Y-2.9069 I-0.0196 J-0.2644
N9180 G1 X4.046 Y-2.9071
N9185 G2 X4.1089 Y-2.9389 I-0.0889 J-0.254
N9190 G1 X4.1094 Y-2.9392
N9195 G2 X4.1626 Y-2.9869 I-0.154 J-0.2255
N9200 G1 X4.163 Y-2.9873
N9205 G2 X4.2026 Y-3.0481 I-0.2103 J-0.1804
N9210 G1 X4.2041 Y-3.0512
N9215 G2 X4.2251 Y-3.1157 I-0.2338 J-0.112
N9220 G1 X4.2326 Y-3.156
N9225 G3 X3.6526 I-0.29 J0.
N9230 X4.2326 I0.29 J0.
N9235 X4.2239 Y-3.1441 I-0.0125 J0.
N9240 G1 X4.0619 Y-3.0929
N9245 G2 X4.0532 Y-3.0826 I0.0038 J0.0119
N9250 G1 X4.0351 Y-2.9456
N9255 G3 X4.0285 Y-2.9362 I-0.0124 J-0.0016
N9260 X4.0375 Y-2.9414 Z-0.1857 I-0.0551 J-0.1052 F10.
N9265 X3.9426 Y-3.156 Z-0.2 I-0.0641 J-0.1
N9270 G1 X3.946 Y-3.1569 F20.279
N9275 G2 X3.9498 Y-3.1613 I-0.0013 J-0.0049
N9280 G1 X3.9501 Y-3.1648
N9285 G2 X3.9474 Y-3.1741 I-0.0128 J-0.0014
N9290 G1 X3.9464 Y-3.1755
N9295 G2 X3.9367 Y-3.1816 I-0.0135 J0.0107
N9300 G1 X3.9342 Y-3.1822
N9305 G2 X3.9192 Y-3.1809 I-0.0056 J0.0241
N9310 G1 X3.9169 Y-3.18
N9315 G2 X3.9023 Y-3.168 I0.0125 J0.0301
N9320 G1 X3.9009 Y-3.166
N9325 G2 X3.8941 Y-3.1441 I0.0338 J0.0225
N9330 G1 Y-3.1418
N9335 G2 X3.901 Y-3.1159 I0.0486 J0.0009
N9340 G1 X3.9022 Y-3.1139
N9345 G2 X3.9246 Y-3.0929 I0.0485 J-0.0292
N9350 G1 X3.9266 Y-3.0918
N9355 G2 X3.9606 Y-3.0848 I0.0297 J-0.0573
N9360 G1 X3.9629 Y-3.0849
N9365 G2 X3.9994 Y-3.0978 I-0.0049 J-0.0723
N9370 G1 X4.0012 Y-3.099
N9375 G2 X4.0285 Y-3.132 I-0.046 J-0.0659
N9380 G1 X4.0294 Y-3.1339
N9385 G2 X4.0366 Y-3.1801 I-0.0805 J-0.0362
N9390 G1 X4.0363 Y-3.1823
N9395 G2 X4.0175 Y-3.2294 I-0.0955 J0.0109
N9400 G1 X4.0162 Y-3.2311
N9405 G2 X3.9728 Y-3.2645 I-0.0829 J0.0627
N9410 G1 X3.9708 Y-3.2653
N9415 G2 X3.9125 Y-3.2726 I-0.0425 J0.1034
N9420 G1 X3.9104 Y-3.2723
N9425 G2 X3.8528 Y-3.2474 I0.0169 J0.1184
N9430 G1 X3.8511 Y-3.2461
N9435 G2 X3.8116 Y-3.1922 I0.0794 J0.0997
N9440 G1 X3.8108 Y-3.1903
N9445 G2 X3.8035 Y-3.1198 I0.1262 J0.0487
N9450 G1 X3.8039 Y-3.1178
N9455 G2 X3.8348 Y-3.0496 I0.1413 J-0.023
N9460 G1 X3.8361 Y-3.048
N9465 G2 X3.9004 Y-3.0024 I0.1164 J-0.0961
N9470 G1 X3.9024 Y-3.0017
N9475 G2 X3.9849 Y-2.9944 I0.0548 J-0.149
N9480 G1 X3.987 Y-2.9947
N9485 G2 X4.0656 Y-3.0316 I-0.029 J-0.164
N9490 G1 X4.0672 Y-3.033
N9495 G2 X4.1188 Y-3.1078 I-0.1127 J-0.1331
N9500 G1 X4.1195 Y-3.1097
N9505 G2 X4.1269 Y-3.2043 I-0.1717 J-0.0609
N9510 G1 X4.1265 Y-3.2064
N9515 G2 X4.0836 Y-3.2955 I-0.1867 J0.0351
N9520 G1 X4.0822 Y-3.2971
N9525 G2 X3.997 Y-3.3548 I-0.1497 J0.1293
N9530 G1 X3.987 Y-3.3582
N9535 G2 X3.8051 Y-3.3349 I-0.0674 J0.1954
N9540 X3.7607 Y-3.296 I0.1247 J0.1874
N9545 G1 X3.7603 Y-3.2956
N9550 G2 X3.7269 Y-3.2457 I0.1722 J0.1511
N9555 G1 X3.7267 Y-3.2452
N9560 G2 X3.7071 Y-3.1873 I0.2091 J0.103
N9565 G1 X3.707 Y-3.1868
N9570 G2 X3.7031 Y-3.1248 I0.2326 J0.0459
N9575 G1 Y-3.1242
N9580 G2 X3.7157 Y-3.0623 I0.2405 J-0.0164
N9585 G1 X3.7158 Y-3.0618
N9590 G2 X3.7445 Y-3.0043 I0.2318 J-0.0797
N9595 G1 X3.7448 Y-3.0039
N9600 G2 X3.7881 Y-2.9551 I0.2065 J-0.1394
N9605 G1 X3.7885 Y-2.9547
N9610 G2 X3.8438 Y-2.9182 I0.1658 J-0.1912
N9615 G1 X3.8443 Y-2.918
N9620 G2 X3.9082 Y-2.8968 I0.1122 J-0.2313
N9625 G1 X3.9088 Y-2.8967
N9630 G2 X3.977 Y-2.8928 I0.049 J-0.2565
N9635 G1 X3.9776
N9640 G2 X4.0455 Y-2.9069 I-0.0196 J-0.2644
N9645 G1 X4.046 Y-2.9071
N9650 G2 X4.1089 Y-2.9389 I-0.0889 J-0.254
N9655 G1 X4.1094 Y-2.9392
N9660 G2 X4.1626 Y-2.9869 I-0.154 J-0.2255
N9665 G1 X4.163 Y-2.9873
N9670 G2 X4.2026 Y-3.0481 I-0.2103 J-0.1804
N9675 G1 X4.2041 Y-3.0512
N9680 G2 X4.2251 Y-3.1157 I-0.2338 J-0.112
N9685 G1 X4.2326 Y-3.156
N9690 G3 X3.6526 I-0.29 J0.
N9695 X4.2326 I0.29 J0.
N9700 X4.2157 Y-3.1444 I-0.0125 J0.
N9705 G1 X3.9759 Y-3.2359
N9710 G2 X3.9687 Y-3.2364 I-0.0045 J0.0117
N9715 G3 X3.9787 Y-3.2391 Z-0.2257 I-0.026 J-0.1159 F10.
N9720 X3.9426 Y-3.471 Z-0.24 I-0.036 J-0.1131
N9725 X3.9152 Y-3.4698 I0. J0.315 F20.279
N9730 X3.9564 Y-2.8413 I0.0275 J0.3138
N9735 X3.9426 Y-3.471 I-0.0137 J-0.3147
N9740 X3.9502 Y-3.4699 Z-0.2388 I0. J0.025 F15.279
N9745 X3.9565 Y-3.4668 Z-0.2352 I-0.0076 J0.0238
N9750 X3.9607 Y-3.4633 Z-0.2297 I-0.0139 J0.0208
N9755 X3.963 Y-3.4606 Z-0.2227 I-0.0181 J0.0173
N9760 X3.9637 Y-3.4596 Z-0.215 I-0.0204 J0.0145
N9765 G0 Z0.6
N9770 M5
N9775 G53 G0 Z0.

(2D Pocket7)
N9785 M9
N9790 M1
N9795 T3 M6
(.0625 2 flute)
N9800 S3667 M3
N9805 G54
N9810 M8
N9820 G0 X2.8229 Y-1.6059
N9825 G43 Z0.6 H3
N9830 T6
N9835 G0 Z0.2
N9840 G1 Z0.1 F8.
N9845 G3 X2.8235 Y-1.6084 Z0.0936 I-0.0286 J-0.0078 F4.889
N9850 X2.8238 Y-1.611 Z0.0872 I-0.0292 J-0.0053
N9855 X2.824 Y-1.6136 Z0.0807 I-0.0296 J-0.0027
N9860 X2.8239 Y-1.6162 Z0.0743 I-0.0297 J-0.0001
N9865 X2.8235 Y-1.6187 Z0.0679 I-0.0296 J0.0024
N9870 X2.823 Y-1.6213 Z0.0615 I-0.0293 J0.005
N9875 X2.8222 Y-1.6238 Z0.055 I-0.0287 J0.0075
N9880 X2.8212 Y-1.6261 Z0.0486 I-0.0279 J0.01
N9885 X2.8201 Y-1.6285 Z0.0422 I-0.027 J0.0124
N9890 X2.8187 Y-1.6306 Z0.0358 I-0.0258 J0.0147
N9895 X2.8171 Y-1.6327 Z0.0293 I-0.0244 J0.0169
N9900 X2.8154 Y-1.6346 Z0.0229 I-0.0228 J0.019
N9905 X2.8135 Y-1.6364 Z0.0165 I-0.0211 J0.0209
N9910 X2.8114 Y-1.638 Z0.0101 I-0.0192 J0.0226
N9915 X2.8092 Y-1.6394 Z0.0036 I-0.0171 J0.0242
N9920 X2.807 Y-1.6406 Z-0.0028 I-0.015 J0.0256
N9925 X2.8046 Y-1.6416 Z-0.0092 I-0.0127 J0.0268
N9930 X2.8021 Y-1.6424 Z-0.0156 I-0.0103 J0.0278
N9935 X2.7996 Y-1.6429 Z-0.022 I-0.0078 J0.0286
N9940 X2.797 Y-1.6433 Z-0.0285 I-0.0053 J0.0292
N9945 X2.824 Y-1.6137 Z-0.03 I-0.0027 J0.0296
N9950 X2.8219 I-0.001 J0.
N9955 X2.826 I0.0021 J0. F10.
N9960 X2.7625 I-0.0317 J0.
N9965 X2.826 I0.0317 J0.
N9970 X2.8205 Y-1.6061 I-0.008 J0.
N9975 G1 X2.7797 Y-1.5928
N9980 G3 X2.7709 Y-1.5954 I-0.0025 J-0.0076
N9985 X2.7726 Y-1.5935 Z-0.0364 I0.0234 J-0.0183 F4.889
N9990 X2.7744 Y-1.5917 Z-0.0428 I0.0217 J-0.0203
N9995 X2.7764 Y-1.59 Z-0.0493 I0.0199 J-0.0221
N10000 X2.7785 Y-1.5886 Z-0.0557 I0.0179 J-0.0237
N10005 X2.824 Y-1.6137 Z-0.06 I0.0157 J-0.0252
N10010 X2.8219 I-0.001 J0.
N10015 X2.826 I0.0021 J0. F10.
N10020 X2.7625 I-0.0317 J0.
N10025 X2.826 I0.0317 J0.
N10030 X2.8205 Y-1.6061 I-0.008 J0.
N10035 G1 X2.7797 Y-1.5928
N10040 G3 X2.7709 Y-1.5954 I-0.0025 J-0.0076
N10045 X2.7726 Y-1.5935 Z-0.0664 I0.0234 J-0.0183 F4.889
N10050 X2.7744 Y-1.5917 Z-0.0728 I0.0217 J-0.0203
N10055 X2.7764 Y-1.59 Z-0.0793 I0.0199 J-0.0221
N10060 X2.7785 Y-1.5886 Z-0.0857 I0.0179 J-0.0237
N10065 X2.824 Y-1.6137 Z-0.09 I0.0157 J-0.0252
N10070 X2.8219 I-0.001 J0.
N10075 X2.826 I0.0021 J0. F10.
N10080 X2.7625 I-0.0317 J0.
N10085 X2.826 I0.0317 J0.
N10090 X2.8205 Y-1.6061 I-0.008 J0.
N10095 G1 X2.7797 Y-1.5928
N10100 G3 X2.7709 Y-1.5954 I-0.0025 J-0.0076
N10105 X2.7726 Y-1.5935 Z-0.0964 I0.0234 J-0.0183 F4.889
N10110 X2.7744 Y-1.5917 Z-0.1028 I0.0217 J-0.0203
N10115 X2.7764 Y-1.59 Z-0.1093 I0.0199 J-0.0221
N10120 X2.7785 Y-1.5886 Z-0.1157 I0.0179 J-0.0237
N10125 X2.824 Y-1.6137 Z-0.12 I0.0157 J-0.0252
N10130 X2.8219 I-0.001 J0.
N10135 X2.826 I0.0021 J0. F10.
N10140 X2.7625 I-0.0317 J0.
N10145 X2.826 I0.0317 J0.
N10150 X2.8205 Y-1.6061 I-0.008 J0.
N10155 G1 X2.7797 Y-1.5928
N10160 G3 X2.7709 Y-1.5954 I-0.0025 J-0.0076
N10165 X2.7726 Y-1.5935 Z-0.1264 I0.0234 J-0.0183 F4.889
N10170 X2.7744 Y-1.5917 Z-0.1328 I0.0217 J-0.0203
N10175 X2.7764 Y-1.59 Z-0.1393 I0.0199 J-0.0221
N10180 X2.7785 Y-1.5886 Z-0.1457 I0.0179 J-0.0237
N10185 X2.824 Y-1.6137 Z-0.15 I0.0157 J-0.0252
N10190 X2.8219 I-0.001 J0.
N10195 X2.826 I0.0021 J0. F10.
N10200 X2.7625 I-0.0317 J0.
N10205 X2.826 I0.0317 J0.
N10210 X2.8205 Y-1.6061 I-0.008 J0.
N10215 G1 X2.7797 Y-1.5928
N10220 G3 X2.7709 Y-1.5954 I-0.0025 J-0.0076
N10225 X2.7726 Y-1.5935 Z-0.1564 I0.0234 J-0.0183 F4.889
N10230 X2.7744 Y-1.5917 Z-0.1628 I0.0217 J-0.0203
N10235 X2.7764 Y-1.59 Z-0.1693 I0.0199 J-0.0221
N10240 X2.7785 Y-1.5886 Z-0.1757 I0.0179 J-0.0237
N10245 X2.824 Y-1.6137 Z-0.18 I0.0157 J-0.0252
N10250 X2.8219 I-0.001 J0.
N10255 X2.826 I0.0021 J0. F10.
N10260 X2.7625 I-0.0317 J0.
N10265 X2.826 I0.0317 J0.
N10270 X2.8205 Y-1.6061 I-0.008 J0.
N10275 G1 X2.7797 Y-1.5928
N10280 G3 X2.7709 Y-1.5954 I-0.0025 J-0.0076
N10285 X2.7726 Y-1.5935 Z-0.1864 I0.0234 J-0.0183 F4.889
N10290 X2.7744 Y-1.5917 Z-0.1928 I0.0217 J-0.0203
N10295 X2.7764 Y-1.59 Z-0.1993 I0.0199 J-0.0221
N10300 X2.7785 Y-1.5886 Z-0.2057 I0.0179 J-0.0237
N10305 X2.824 Y-1.6137 Z-0.21 I0.0157 J-0.0252
N10310 X2.8219 I-0.001 J0.
N10315 X2.826 I0.0021 J0. F10.
N10320 X2.7625 I-0.0317 J0.
N10325 X2.826 I0.0317 J0.
N10330 X2.8205 Y-1.6061 I-0.008 J0.
N10335 G1 X2.7797 Y-1.5928
N10340 G3 X2.7709 Y-1.5954 I-0.0025 J-0.0076
N10345 X2.7726 Y-1.5935 Z-0.2164 I0.0234 J-0.0183 F4.889
N10350 X2.7744 Y-1.5917 Z-0.2228 I0.0217 J-0.0203
N10355 X2.7764 Y-1.59 Z-0.2293 I0.0199 J-0.0221
N10360 X2.7785 Y-1.5886 Z-0.2357 I0.0179 J-0.0237
N10365 X2.824 Y-1.6137 Z-0.24 I0.0157 J-0.0252
N10370 X2.8219 I-0.001 J0.
N10375 X2.826 I0.0021 J0. F10.
N10380 X2.7625 I-0.0317 J0.
N10385 X2.826 I0.0317 J0.
N10390 G0 Z0.2
N10395 G1 X3.9713 Y-1.0857 F500.
N10400 Z0.1 F8.
N10405 G3 X3.9718 Y-1.0882 Z0.0936 I-0.0286 J-0.0078 F4.889
N10410 X3.9722 Y-1.0908 Z0.0872 I-0.0292 J-0.0053
N10415 X3.9723 Y-1.0934 Z0.0807 I-0.0296 J-0.0027
N10420 X3.9722 Y-1.096 Z0.0743 I-0.0297 J-0.0001
N10425 X3.9719 Y-1.0986 Z0.0679 I-0.0296 J0.0024
N10430 X3.9714 Y-1.1011 Z0.0615 I-0.0293 J0.005
N10435 X3.9706 Y-1.1036 Z0.055 I-0.0287 J0.0075
N10440 X3.9696 Y-1.106 Z0.0486 I-0.0279 J0.01
N10445 X3.9684 Y-1.1083 Z0.0422 I-0.027 J0.0124
N10450 X3.967 Y-1.1105 Z0.0358 I-0.0258 J0.0147
N10455 X3.9655 Y-1.1125 Z0.0293 I-0.0244 J0.0169
N10460 X3.9637 Y-1.1144 Z0.0229 I-0.0228 J0.019
N10465 X3.9618 Y-1.1162 Z0.0165 I-0.0211 J0.0209
N10470 X3.9598 Y-1.1178 Z0.0101 I-0.0192 J0.0226
N10475 X3.9576 Y-1.1192 Z0.0036 I-0.0171 J0.0242
N10480 X3.9553 Y-1.1204 Z-0.0028 I-0.015 J0.0256
N10485 X3.9529 Y-1.1214 Z-0.0092 I-0.0127 J0.0268
N10490 X3.9505 Y-1.1222 Z-0.0156 I-0.0103 J0.0278
N10495 X3.9479 Y-1.1228 Z-0.022 I-0.0078 J0.0286
N10500 X3.9454 Y-1.1231 Z-0.0285 I-0.0053 J0.0292
N10505 X3.9723 Y-1.0935 Z-0.03 I-0.0027 J0.0296
N10510 X3.9703 I-0.001 J0.
N10515 X3.9744 I0.0021 J0. F10.
N10520 X3.9109 I-0.0317 J0.
N10525 X3.9744 I0.0317 J0.
N10530 X3.9689 Y-1.0859 I-0.008 J0.
N10535 G1 X3.928 Y-1.0726
N10540 G3 X3.9192 Y-1.0753 I-0.0025 J-0.0076
N10545 X3.9209 Y-1.0733 Z-0.0364 I0.0234 J-0.0183 F4.889
N10550 X3.9228 Y-1.0715 Z-0.0428 I0.0217 J-0.0203
N10555 X3.9248 Y-1.0698 Z-0.0493 I0.0199 J-0.0221
N10560 X3.9269 Y-1.0684 Z-0.0557 I0.0179 J-0.0237
N10565 X3.9723 Y-1.0935 Z-0.06 I0.0157 J-0.0252
N10570 X3.9703 I-0.001 J0.
N10575 X3.9744 I0.0021 J0. F10.
N10580 X3.9109 I-0.0317 J0.
N10585 X3.9744 I0.0317 J0.
N10590 X3.9689 Y-1.0859 I-0.008 J0.
N10595 G1 X3.928 Y-1.0726
N10600 G3 X3.9192 Y-1.0753 I-0.0025 J-0.0076
N10605 X3.9209 Y-1.0733 Z-0.0664 I0.0234 J-0.0183 F4.889
N10610 X3.9228 Y-1.0715 Z-0.0728 I0.0217 J-0.0203
N10615 X3.9248 Y-1.0698 Z-0.0793 I0.0199 J-0.0221
N10620 X3.9269 Y-1.0684 Z-0.0857 I0.0179 J-0.0237
N10625 X3.9723 Y-1.0935 Z-0.09 I0.0157 J-0.0252
N10630 X3.9703 I-0.001 J0.
N10635 X3.9744 I0.0021 J0. F10.
N10640 X3.9109 I-0.0317 J0.
N10645 X3.9744 I0.0317 J0.
N10650 X3.9689 Y-1.0859 I-0.008 J0.
N10655 G1 X3.928 Y-1.0726
N10660 G3 X3.9192 Y-1.0753 I-0.0025 J-0.0076
N10665 X3.9209 Y-1.0733 Z-0.0964 I0.0234 J-0.0183 F4.889
N10670 X3.9228 Y-1.0715 Z-0.1028 I0.0217 J-0.0203
N10675 X3.9248 Y-1.0698 Z-0.1093 I0.0199 J-0.0221
N10680 X3.9269 Y-1.0684 Z-0.1157 I0.0179 J-0.0237
N10685 X3.9723 Y-1.0935 Z-0.12 I0.0157 J-0.0252
N10690 X3.9703 I-0.001 J0.
N10695 X3.9744 I0.0021 J0. F10.
N10700 X3.9109 I-0.0317 J0.
N10705 X3.9744 I0.0317 J0.
N10710 X3.9689 Y-1.0859 I-0.008 J0.
N10715 G1 X3.928 Y-1.0726
N10720 G3 X3.9192 Y-1.0753 I-0.0025 J-0.0076
N10725 X3.9209 Y-1.0733 Z-0.1264 I0.0234 J-0.0183 F4.889
N10730 X3.9228 Y-1.0715 Z-0.1328 I0.0217 J-0.0203
N10735 X3.9248 Y-1.0698 Z-0.1393 I0.0199 J-0.0221
N10740 X3.9269 Y-1.0684 Z-0.1457 I0.0179 J-0.0237
N10745 X3.9723 Y-1.0935 Z-0.15 I0.0157 J-0.0252
N10750 X3.9703 I-0.001 J0.
N10755 X3.9744 I0.0021 J0. F10.
N10760 X3.9109 I-0.0317 J0.
N10765 X3.9744 I0.0317 J0.
N10770 X3.9689 Y-1.0859 I-0.008 J0.
N10775 G1 X3.928 Y-1.0726
N10780 G3 X3.9192 Y-1.0753 I-0.0025 J-0.0076
N10785 X3.9209 Y-1.0733 Z-0.1564 I0.0234 J-0.0183 F4.889
N10790 X3.9228 Y-1.0715 Z-0.1628 I0.0217 J-0.0203
N10795 X3.9248 Y-1.0698 Z-0.1693 I0.0199 J-0.0221
N10800 X3.9269 Y-1.0684 Z-0.1757 I0.0179 J-0.0237
N10805 X3.9723 Y-1.0935 Z-0.18 I0.0157 J-0.0252
N10810 X3.9703 I-0.001 J0.
N10815 X3.9744 I0.0021 J0. F10.
N10820 X3.9109 I-0.0317 J0.
N10825 X3.9744 I0.0317 J0.
N10830 X3.9689 Y-1.0859 I-0.008 J0.
N10835 G1 X3.928 Y-1.0726
N10840 G3 X3.9192 Y-1.0753 I-0.0025 J-0.0076
N10845 X3.9209 Y-1.0733 Z-0.1864 I0.0234 J-0.0183 F4.889
N10850 X3.9228 Y-1.0715 Z-0.1928 I0.0217 J-0.0203
N10855 X3.9248 Y-1.0698 Z-0.1993 I0.0199 J-0.0221
N10860 X3.9269 Y-1.0684 Z-0.2057 I0.0179 J-0.0237
N10865 X3.9723 Y-1.0935 Z-0.21 I0.0157 J-0.0252
N10870 X3.9703 I-0.001 J0.
N10875 X3.9744 I0.0021 J0. F10.
N10880 X3.9109 I-0.0317 J0.
N10885 X3.9744 I0.0317 J0.
N10890 X3.9689 Y-1.0859 I-0.008 J0.
N10895 G1 X3.928 Y-1.0726
N10900 G3 X3.9192 Y-1.0753 I-0.0025 J-0.0076
N10905 X3.9209 Y-1.0733 Z-0.2164 I0.0234 J-0.0183 F4.889
N10910 X3.9228 Y-1.0715 Z-0.2228 I0.0217 J-0.0203
N10915 X3.9248 Y-1.0698 Z-0.2293 I0.0199 J-0.0221
N10920 X3.9269 Y-1.0684 Z-0.2357 I0.0179 J-0.0237
N10925 X3.9723 Y-1.0935 Z-0.24 I0.0157 J-0.0252
N10930 X3.9703 I-0.001 J0.
N10935 X3.9744 I0.0021 J0. F10.
N10940 X3.9109 I-0.0317 J0.
N10945 X3.9744 I0.0317 J0.
N10950 G0 Z0.2
N10955 G1 X4.2353 Y-3.721 F500.
N10960 Z0.1 F8.
N10965 G3 X4.2358 Y-3.7235 Z0.0936 I-0.0286 J-0.0078 F4.889
N10970 X4.2362 Y-3.7261 Z0.0872 I-0.0292 J-0.0053
N10975 X4.2363 Y-3.7287 Z0.0807 I-0.0296 J-0.0027
N10980 X4.2362 Y-3.7313 Z0.0743 I-0.0297 J-0.0001
N10985 X4.2359 Y-3.7339 Z0.0679 I-0.0296 J0.0024
N10990 X4.2353 Y-3.7364 Z0.0615 I-0.0293 J0.005
N10995 X4.2346 Y-3.7389 Z0.055 I-0.0287 J0.0075
N11000 X4.2336 Y-3.7413 Z0.0486 I-0.0279 J0.01
N11005 X4.2324 Y-3.7436 Z0.0422 I-0.027 J0.0124
N11010 X4.231 Y-3.7458 Z0.0358 I-0.0258 J0.0147
N11015 X4.2295 Y-3.7478 Z0.0293 I-0.0244 J0.0169
N11020 X4.2277 Y-3.7497 Z0.0229 I-0.0228 J0.019
N11025 X4.2258 Y-3.7515 Z0.0165 I-0.0211 J0.0209
N11030 X4.2238 Y-3.7531 Z0.0101 I-0.0192 J0.0226
N11035 X4.2216 Y-3.7545 Z0.0036 I-0.0171 J0.0242
N11040 X4.2193 Y-3.7557 Z-0.0028 I-0.015 J0.0256
N11045 X4.2169 Y-3.7567 Z-0.0092 I-0.0127 J0.0268
N11050 X4.2144 Y-3.7575 Z-0.0156 I-0.0103 J0.0278
N11055 X4.2119 Y-3.7581 Z-0.022 I-0.0078 J0.0286
N11060 X4.2093 Y-3.7584 Z-0.0285 I-0.0053 J0.0292
N11065 X4.2363 Y-3.7288 Z-0.03 I-0.0027 J0.0296
N11070 X4.2227 I-0.0068 J0.
N11075 X4.2368 I0.0071 J0. F10.
N11080 X4.1633 I-0.0367 J0.
N11085 X4.2368 I0.0367 J0.
N11090 X4.2314 Y-3.7213 I-0.008 J0.
N11095 G1 X4.1921 Y-3.7079
N11100 G3 X4.1832 Y-3.7106 I-0.0026 J-0.0076
N11105 X4.1849 Y-3.7086 Z-0.0364 I0.0234 J-0.0183 F4.889
N11110 X4.1868 Y-3.7068 Z-0.0428 I0.0217 J-0.0203
N11115 X4.1888 Y-3.7051 Z-0.0493 I0.0199 J-0.0221
N11120 X4.1909 Y-3.7037 Z-0.0557 I0.0179 J-0.0237
N11125 X4.2363 Y-3.7288 Z-0.06 I0.0157 J-0.0252
N11130 X4.2227 I-0.0068 J0.
N11135 X4.2368 I0.0071 J0. F10.
N11140 X4.1633 I-0.0367 J0.
N11145 X4.2368 I0.0367 J0.
N11150 X4.2314 Y-3.7213 I-0.008 J0.
N11155 G1 X4.1921 Y-3.7079
N11160 G3 X4.1832 Y-3.7106 I-0.0026 J-0.0076
N11165 X4.1849 Y-3.7086 Z-0.0664 I0.0234 J-0.0183 F4.889
N11170 X4.1868 Y-3.7068 Z-0.0728 I0.0217 J-0.0203
N11175 X4.1888 Y-3.7051 Z-0.0793 I0.0199 J-0.0221
N11180 X4.1909 Y-3.7037 Z-0.0857 I0.0179 J-0.0237
N11185 X4.2363 Y-3.7288 Z-0.09 I0.0157 J-0.0252
N11190 X4.2227 I-0.0068 J0.
N11195 X4.2368 I0.0071 J0. F10.
N11200 X4.1633 I-0.0367 J0.
N11205 X4.2368 I0.0367 J0.
N11210 X4.2314 Y-3.7213 I-0.008 J0.
N11215 G1 X4.1921 Y-3.7079
N11220 G3 X4.1832 Y-3.7106 I-0.0026 J-0.0076
N11225 X4.1849 Y-3.7086 Z-0.0964 I0.0234 J-0.0183 F4.889
N11230 X4.1868 Y-3.7068 Z-0.1028 I0.0217 J-0.0203
N11235 X4.1888 Y-3.7051 Z-0.1093 I0.0199 J-0.0221
N11240 X4.1909 Y-3.7037 Z-0.1157 I0.0179 J-0.0237
N11245 X4.2363 Y-3.7288 Z-0.12 I0.0157 J-0.0252
N11250 X4.2227 I-0.0068 J0.
N11255 X4.2368 I0.0071 J0. F10.
N11260 X4.1633 I-0.0367 J0.
N11265 X4.2368 I0.0367 J0.
N11270 X4.2314 Y-3.7213 I-0.008 J0.
N11275 G1 X4.1921 Y-3.7079
N11280 G3 X4.1832 Y-3.7106 I-0.0026 J-0.0076
N11285 X4.1849 Y-3.7086 Z-0.1264 I0.0234 J-0.0183 F4.889
N11290 X4.1868 Y-3.7068 Z-0.1328 I0.0217 J-0.0203
N11295 X4.1888 Y-3.7051 Z-0.1393 I0.0199 J-0.0221
N11300 X4.1909 Y-3.7037 Z-0.1457 I0.0179 J-0.0237
N11305 X4.2363 Y-3.7288 Z-0.15 I0.0157 J-0.0252
N11310 X4.2227 I-0.0068 J0.
N11315 X4.2368 I0.0071 J0. F10.
N11320 X4.1633 I-0.0367 J0.
N11325 X4.2368 I0.0367 J0.
N11330 X4.2314 Y-3.7213 I-0.008 J0.
N11335 G1 X4.1921 Y-3.7079
N11340 G3 X4.1832 Y-3.7106 I-0.0026 J-0.0076
N11345 X4.1849 Y-3.7086 Z-0.1564 I0.0234 J-0.0183 F4.889
N11350 X4.1868 Y-3.7068 Z-0.1628 I0.0217 J-0.0203
N11355 X4.1888 Y-3.7051 Z-0.1693 I0.0199 J-0.0221
N11360 X4.1909 Y-3.7037 Z-0.1757 I0.0179 J-0.0237
N11365 X4.2363 Y-3.7288 Z-0.18 I0.0157 J-0.0252
N11370 X4.2227 I-0.0068 J0.
N11375 X4.2368 I0.0071 J0. F10.
N11380 X4.1633 I-0.0367 J0.
N11385 X4.2368 I0.0367 J0.
N11390 X4.2314 Y-3.7213 I-0.008 J0.
N11395 G1 X4.1921 Y-3.7079
N11400 G3 X4.1832 Y-3.7106 I-0.0026 J-0.0076
N11405 X4.1849 Y-3.7086 Z-0.1864 I0.0234 J-0.0183 F4.889
N11410 X4.1868 Y-3.7068 Z-0.1928 I0.0217 J-0.0203
N11415 X4.1888 Y-3.7051 Z-0.1993 I0.0199 J-0.0221
N11420 X4.1909 Y-3.7037 Z-0.2057 I0.0179 J-0.0237
N11425 X4.2363 Y-3.7288 Z-0.21 I0.0157 J-0.0252
N11430 X4.2227 I-0.0068 J0.
N11435 X4.2368 I0.0071 J0. F10.
N11440 X4.1633 I-0.0367 J0.
N11445 X4.2368 I0.0367 J0.
N11450 X4.2314 Y-3.7213 I-0.008 J0.
N11455 G1 X4.1921 Y-3.7079
N11460 G3 X4.1832 Y-3.7106 I-0.0026 J-0.0076
N11465 X4.1849 Y-3.7086 Z-0.2164 I0.0234 J-0.0183 F4.889
N11470 X4.1868 Y-3.7068 Z-0.2228 I0.0217 J-0.0203
N11475 X4.1888 Y-3.7051 Z-0.2293 I0.0199 J-0.0221
N11480 X4.1909 Y-3.7037 Z-0.2357 I0.0179 J-0.0237
N11485 X4.2363 Y-3.7288 Z-0.24 I0.0157 J-0.0252
N11490 X4.2227 I-0.0068 J0.
N11495 X4.2368 I0.0071 J0. F10.
N11500 X4.1633 I-0.0367 J0.
N11505 X4.2368 I0.0367 J0.
N11510 G0 Z0.2
N11515 G1 X3.4396 Y-4.7422 F500.
N11520 Z0.1 F8.
N11525 G3 X3.4401 Y-4.7447 Z0.0936 I-0.0286 J-0.0078 F4.889
N11530 X3.4405 Y-4.7473 Z0.0872 I-0.0292 J-0.0053
N11535 X3.4406 Y-4.7499 Z0.0807 I-0.0296 J-0.0027
N11540 X3.4405 Y-4.7524 Z0.0743 I-0.0297 J-0.0001
N11545 X3.4402 Y-4.755 Z0.0679 I-0.0296 J0.0024
N11550 X3.4396 Y-4.7575 Z0.0615 I-0.0293 J0.005
N11555 X3.4389 Y-4.76 Z0.055 I-0.0287 J0.0075
N11560 X3.4379 Y-4.7624 Z0.0486 I-0.0279 J0.01
N11565 X3.4367 Y-4.7647 Z0.0422 I-0.027 J0.0124
N11570 X3.4353 Y-4.7669 Z0.0358 I-0.0258 J0.0147
N11575 X3.4337 Y-4.769 Z0.0293 I-0.0244 J0.0169
N11580 X3.432 Y-4.7709 Z0.0229 I-0.0228 J0.019
N11585 X3.4301 Y-4.7726 Z0.0165 I-0.0211 J0.0209
N11590 X3.4281 Y-4.7742 Z0.0101 I-0.0192 J0.0226
N11595 X3.4259 Y-4.7756 Z0.0036 I-0.0171 J0.0242
N11600 X3.4236 Y-4.7768 Z-0.0028 I-0.015 J0.0256
N11605 X3.4212 Y-4.7778 Z-0.0092 I-0.0127 J0.0268
N11610 X3.4187 Y-4.7786 Z-0.0156 I-0.0103 J0.0278
N11615 X3.4162 Y-4.7792 Z-0.022 I-0.0078 J0.0286
N11620 X3.4136 Y-4.7796 Z-0.0285 I-0.0053 J0.0292
N11625 X3.4406 Y-4.75 Z-0.03 I-0.0027 J0.0296
N11630 X3.4385 I-0.001 J0.
N11635 X3.4427 I0.0021 J0. F10.
N11640 X3.3792 I-0.0317 J0.
N11645 X3.4427 I0.0317 J0.
N11650 X3.4371 Y-4.7424 I-0.008 J0.
N11655 G1 X3.3963 Y-4.729
N11660 G3 X3.3875 Y-4.7317 I-0.0025 J-0.0076
N11665 X3.3892 Y-4.7297 Z-0.0364 I0.0234 J-0.0183 F4.889
N11670 X3.3911 Y-4.7279 Z-0.0428 I0.0217 J-0.0203
N11675 X3.3931 Y-4.7263 Z-0.0493 I0.0199 J-0.0221
N11680 X3.3952 Y-4.7248 Z-0.0557 I0.0179 J-0.0237
N11685 X3.4406 Y-4.75 Z-0.06 I0.0157 J-0.0252
N11690 X3.4385 I-0.001 J0.
N11695 X3.4427 I0.0021 J0. F10.
N11700 X3.3792 I-0.0317 J0.
N11705 X3.4427 I0.0317 J0.
N11710 X3.4371 Y-4.7424 I-0.008 J0.
N11715 G1 X3.3963 Y-4.729
N11720 G3 X3.3875 Y-4.7317 I-0.0025 J-0.0076
N11725 X3.3892 Y-4.7297 Z-0.0664 I0.0234 J-0.0183 F4.889
N11730 X3.3911 Y-4.7279 Z-0.0728 I0.0217 J-0.0203
N11735 X3.3931 Y-4.7263 Z-0.0793 I0.0199 J-0.0221
N11740 X3.3952 Y-4.7248 Z-0.0857 I0.0179 J-0.0237
N11745 X3.4406 Y-4.75 Z-0.09 I0.0157 J-0.0252
N11750 X3.4385 I-0.001 J0.
N11755 X3.4427 I0.0021 J0. F10.
N11760 X3.3792 I-0.0317 J0.
N11765 X3.4427 I0.0317 J0.
N11770 X3.4371 Y-4.7424 I-0.008 J0.
N11775 G1 X3.3963 Y-4.729
N11780 G3 X3.3875 Y-4.7317 I-0.0025 J-0.0076
N11785 X3.3892 Y-4.7297 Z-0.0964 I0.0234 J-0.0183 F4.889
N11790 X3.3911 Y-4.7279 Z-0.1028 I0.0217 J-0.0203
N11795 X3.3931 Y-4.7263 Z-0.1093 I0.0199 J-0.0221
N11800 X3.3952 Y-4.7248 Z-0.1157 I0.0179 J-0.0237
N11805 X3.4406 Y-4.75 Z-0.12 I0.0157 J-0.0252
N11810 X3.4385 I-0.001 J0.
N11815 X3.4427 I0.0021 J0. F10.
N11820 X3.3792 I-0.0317 J0.
N11825 X3.4427 I0.0317 J0.
N11830 X3.4371 Y-4.7424 I-0.008 J0.
N11835 G1 X3.3963 Y-4.729
N11840 G3 X3.3875 Y-4.7317 I-0.0025 J-0.0076
N11845 X3.3892 Y-4.7297 Z-0.1264 I0.0234 J-0.0183 F4.889
N11850 X3.3911 Y-4.7279 Z-0.1328 I0.0217 J-0.0203
N11855 X3.3931 Y-4.7263 Z-0.1393 I0.0199 J-0.0221
N11860 X3.3952 Y-4.7248 Z-0.1457 I0.0179 J-0.0237
N11865 X3.4406 Y-4.75 Z-0.15 I0.0157 J-0.0252
N11870 X3.4385 I-0.001 J0.
N11875 X3.4427 I0.0021 J0. F10.
N11880 X3.3792 I-0.0317 J0.
N11885 X3.4427 I0.0317 J0.
N11890 X3.4371 Y-4.7424 I-0.008 J0.
N11895 G1 X3.3963 Y-4.729
N11900 G3 X3.3875 Y-4.7317 I-0.0025 J-0.0076
N11905 X3.3892 Y-4.7297 Z-0.1564 I0.0234 J-0.0183 F4.889
N11910 X3.3911 Y-4.7279 Z-0.1628 I0.0217 J-0.0203
N11915 X3.3931 Y-4.7263 Z-0.1693 I0.0199 J-0.0221
N11920 X3.3952 Y-4.7248 Z-0.1757 I0.0179 J-0.0237
N11925 X3.4406 Y-4.75 Z-0.18 I0.0157 J-0.0252
N11930 X3.4385 I-0.001 J0.
N11935 X3.4427 I0.0021 J0. F10.
N11940 X3.3792 I-0.0317 J0.
N11945 X3.4427 I0.0317 J0.
N11950 X3.4371 Y-4.7424 I-0.008 J0.
N11955 G1 X3.3963 Y-4.729
N11960 G3 X3.3875 Y-4.7317 I-0.0025 J-0.0076
N11965 X3.3892 Y-4.7297 Z-0.1864 I0.0234 J-0.0183 F4.889
N11970 X3.3911 Y-4.7279 Z-0.1928 I0.0217 J-0.0203
N11975 X3.3931 Y-4.7263 Z-0.1993 I0.0199 J-0.0221
N11980 X3.3952 Y-4.7248 Z-0.2057 I0.0179 J-0.0237
N11985 X3.4406 Y-4.75 Z-0.21 I0.0157 J-0.0252
N11990 X3.4385 I-0.001 J0.
N11995 X3.4427 I0.0021 J0. F10.
N12000 X3.3792 I-0.0317 J0.
N12005 X3.4427 I0.0317 J0.
N12010 X3.4371 Y-4.7424 I-0.008 J0.
N12015 G1 X3.3963 Y-4.729
N12020 G3 X3.3875 Y-4.7317 I-0.0025 J-0.0076
N12025 X3.3892 Y-4.7297 Z-0.2164 I0.0234 J-0.0183 F4.889
N12030 X3.3911 Y-4.7279 Z-0.2228 I0.0217 J-0.0203
N12035 X3.3931 Y-4.7263 Z-0.2293 I0.0199 J-0.0221
N12040 X3.3952 Y-4.7248 Z-0.2357 I0.0179 J-0.0237
N12045 X3.4406 Y-4.75 Z-0.24 I0.0157 J-0.0252
N12050 X3.4385 I-0.001 J0.
N12055 X3.4427 I0.0021 J0. F10.
N12060 X3.3792 I-0.0317 J0.
N12065 X3.4427 I0.0317 J0.
N12070 G0 Z0.2
N12075 G1 X0.8108 Y-4.9996 F500.
N12080 Z0.1 F8.
N12085 G3 X0.8114 Y-5.0021 Z0.0936 I-0.0286 J-0.0078 F4.889
N12090 X0.8117 Y-5.0047 Z0.0872 I-0.0292 J-0.0053
N12095 X0.8118 Y-5.0073 Z0.0807 I-0.0296 J-0.0027
N12100 X0.8117 Y-5.0099 Z0.0743 I-0.0297 J-0.0001
N12105 X0.8114 Y-5.0125 Z0.0679 I-0.0296 J0.0024
N12110 X0.8109 Y-5.015 Z0.0615 I-0.0293 J0.005
N12115 X0.8101 Y-5.0175 Z0.055 I-0.0287 J0.0075
N12120 X0.8091 Y-5.0199 Z0.0486 I-0.0279 J0.01
N12125 X0.8079 Y-5.0222 Z0.0422 I-0.027 J0.0124
N12130 X0.8066 Y-5.0244 Z0.0358 I-0.0258 J0.0147
N12135 X0.805 Y-5.0264 Z0.0293 I-0.0244 J0.0169
N12140 X0.8032 Y-5.0283 Z0.0229 I-0.0228 J0.019
N12145 X0.8013 Y-5.0301 Z0.0165 I-0.0211 J0.0209
N12150 X0.7993 Y-5.0317 Z0.0101 I-0.0192 J0.0226
N12155 X0.7971 Y-5.0331 Z0.0036 I-0.0171 J0.0242
N12160 X0.7948 Y-5.0343 Z-0.0028 I-0.015 J0.0256
N12165 X0.7924 Y-5.0353 Z-0.0092 I-0.0127 J0.0268
N12170 X0.79 Y-5.0361 Z-0.0156 I-0.0103 J0.0278
N12175 X0.7874 Y-5.0367 Z-0.022 I-0.0078 J0.0286
N12180 X0.7849 Y-5.037 Z-0.0285 I-0.0053 J0.0292
N12185 X0.8118 Y-5.0074 Z-0.03 I-0.0027 J0.0296
N12190 X0.7982 I-0.0068 J0.
N12195 X0.8124 I0.0071 J0. F10.
N12200 X0.7389 I-0.0367 J0.
N12205 X0.8124 I0.0367 J0.
N12210 X0.8069 Y-4.9999 I-0.008 J0.
N12215 G1 X0.7676 Y-4.9865
N12220 G3 X0.7588 Y-4.9892 I-0.0026 J-0.0076
N12225 X0.7604 Y-4.9872 Z-0.0364 I0.0234 J-0.0183 F4.889
N12230 X0.7623 Y-4.9854 Z-0.0428 I0.0217 J-0.0203
N12235 X0.7643 Y-4.9837 Z-0.0493 I0.0199 J-0.0221
N12240 X0.7664 Y-4.9823 Z-0.0557 I0.0179 J-0.0237
N12245 X0.8118 Y-5.0074 Z-0.06 I0.0157 J-0.0252
N12250 X0.7982 I-0.0068 J0.
N12255 X0.8124 I0.0071 J0. F10.
N12260 X0.7389 I-0.0367 J0.
N12265 X0.8124 I0.0367 J0.
N12270 X0.8069 Y-4.9999 I-0.008 J0.
N12275 G1 X0.7676 Y-4.9865
N12280 G3 X0.7588 Y-4.9892 I-0.0026 J-0.0076
N12285 X0.7604 Y-4.9872 Z-0.0664 I0.0234 J-0.0183 F4.889
N12290 X0.7623 Y-4.9854 Z-0.0728 I0.0217 J-0.0203
N12295 X0.7643 Y-4.9837 Z-0.0793 I0.0199 J-0.0221
N12300 X0.7664 Y-4.9823 Z-0.0857 I0.0179 J-0.0237
N12305 X0.8118 Y-5.0074 Z-0.09 I0.0157 J-0.0252
N12310 X0.7982 I-0.0068 J0.
N12315 X0.8124 I0.0071 J0. F10.
N12320 X0.7389 I-0.0367 J0.
N12325 X0.8124 I0.0367 J0.
N12330 X0.8069 Y-4.9999 I-0.008 J0.
N12335 G1 X0.7676 Y-4.9865
N12340 G3 X0.7588 Y-4.9892 I-0.0026 J-0.0076
N12345 X0.7604 Y-4.9872 Z-0.0964 I0.0234 J-0.0183 F4.889
N12350 X0.7623 Y-4.9854 Z-0.1028 I0.0217 J-0.0203
N12355 X0.7643 Y-4.9837 Z-0.1093 I0.0199 J-0.0221
N12360 X0.7664 Y-4.9823 Z-0.1157 I0.0179 J-0.0237
N12365 X0.8118 Y-5.0074 Z-0.12 I0.0157 J-0.0252
N12370 X0.7982 I-0.0068 J0.
N12375 X0.8124 I0.0071 J0. F10.
N12380 X0.7389 I-0.0367 J0.
N12385 X0.8124 I0.0367 J0.
N12390 X0.8069 Y-4.9999 I-0.008 J0.
N12395 G1 X0.7676 Y-4.9865
N12400 G3 X0.7588 Y-4.9892 I-0.0026 J-0.0076
N12405 X0.7604 Y-4.9872 Z-0.1264 I0.0234 J-0.0183 F4.889
N12410 X0.7623 Y-4.9854 Z-0.1328 I0.0217 J-0.0203
N12415 X0.7643 Y-4.9837 Z-0.1393 I0.0199 J-0.0221
N12420 X0.7664 Y-4.9823 Z-0.1457 I0.0179 J-0.0237
N12425 X0.8118 Y-5.0074 Z-0.15 I0.0157 J-0.0252
N12430 X0.7982 I-0.0068 J0.
N12435 X0.8124 I0.0071 J0. F10.
N12440 X0.7389 I-0.0367 J0.
N12445 X0.8124 I0.0367 J0.
N12450 X0.8069 Y-4.9999 I-0.008 J0.
N12455 G1 X0.7676 Y-4.9865
N12460 G3 X0.7588 Y-4.9892 I-0.0026 J-0.0076
N12465 X0.7604 Y-4.9872 Z-0.1564 I0.0234 J-0.0183 F4.889
N12470 X0.7623 Y-4.9854 Z-0.1628 I0.0217 J-0.0203
N12475 X0.7643 Y-4.9837 Z-0.1693 I0.0199 J-0.0221
N12480 X0.7664 Y-4.9823 Z-0.1757 I0.0179 J-0.0237
N12485 X0.8118 Y-5.0074 Z-0.18 I0.0157 J-0.0252
N12490 X0.7982 I-0.0068 J0.
N12495 X0.8124 I0.0071 J0. F10.
N12500 X0.7389 I-0.0367 J0.
N12505 X0.8124 I0.0367 J0.
N12510 X0.8069 Y-4.9999 I-0.008 J0.
N12515 G1 X0.7676 Y-4.9865
N12520 G3 X0.7588 Y-4.9892 I-0.0026 J-0.0076
N12525 X0.7604 Y-4.9872 Z-0.1864 I0.0234 J-0.0183 F4.889
N12530 X0.7623 Y-4.9854 Z-0.1928 I0.0217 J-0.0203
N12535 X0.7643 Y-4.9837 Z-0.1993 I0.0199 J-0.0221
N12540 X0.7664 Y-4.9823 Z-0.2057 I0.0179 J-0.0237
N12545 X0.8118 Y-5.0074 Z-0.21 I0.0157 J-0.0252
N12550 X0.7982 I-0.0068 J0.
N12555 X0.8124 I0.0071 J0. F10.
N12560 X0.7389 I-0.0367 J0.
N12565 X0.8124 I0.0367 J0.
N12570 X0.8069 Y-4.9999 I-0.008 J0.
N12575 G1 X0.7676 Y-4.9865
N12580 G3 X0.7588 Y-4.9892 I-0.0026 J-0.0076
N12585 X0.7604 Y-4.9872 Z-0.2164 I0.0234 J-0.0183 F4.889
N12590 X0.7623 Y-4.9854 Z-0.2228 I0.0217 J-0.0203
N12595 X0.7643 Y-4.9837 Z-0.2293 I0.0199 J-0.0221
N12600 X0.7664 Y-4.9823 Z-0.2357 I0.0179 J-0.0237
N12605 X0.8118 Y-5.0074 Z-0.24 I0.0157 J-0.0252
N12610 X0.7982 I-0.0068 J0.
N12615 X0.8124 I0.0071 J0. F10.
N12620 X0.7389 I-0.0367 J0.
N12625 X0.8124 I0.0367 J0.
N12630 G0 Z0.2
N12635 G1 X1.3662 Y-1.6059 F500.
N12640 Z0.1 F8.
N12645 G3 X1.3668 Y-1.6084 Z0.0936 I-0.0286 J-0.0078 F4.889
N12650 X1.3671 Y-1.611 Z0.0872 I-0.0292 J-0.0053
N12655 X1.3673 Y-1.6136 Z0.0807 I-0.0296 J-0.0027
N12660 X1.3672 Y-1.6162 Z0.0743 I-0.0297 J-0.0001
N12665 X1.3668 Y-1.6187 Z0.0679 I-0.0296 J0.0024
N12670 X1.3663 Y-1.6213 Z0.0615 I-0.0293 J0.005
N12675 X1.3655 Y-1.6238 Z0.055 I-0.0287 J0.0075
N12680 X1.3645 Y-1.6261 Z0.0486 I-0.0279 J0.01
N12685 X1.3634 Y-1.6285 Z0.0422 I-0.027 J0.0124
N12690 X1.362 Y-1.6306 Z0.0358 I-0.0258 J0.0147
N12695 X1.3604 Y-1.6327 Z0.0293 I-0.0244 J0.0169
N12700 X1.3587 Y-1.6346 Z0.0229 I-0.0228 J0.019
N12705 X1.3568 Y-1.6364 Z0.0165 I-0.0211 J0.0209
N12710 X1.3547 Y-1.638 Z0.0101 I-0.0192 J0.0226
N12715 X1.3526 Y-1.6394 Z0.0036 I-0.0171 J0.0242
N12720 X1.3503 Y-1.6406 Z-0.0028 I-0.015 J0.0256
N12725 X1.3479 Y-1.6416 Z-0.0092 I-0.0127 J0.0268
N12730 X1.3454 Y-1.6424 Z-0.0156 I-0.0103 J0.0278
N12735 X1.3429 Y-1.6429 Z-0.022 I-0.0078 J0.0286
N12740 X1.3403 Y-1.6433 Z-0.0285 I-0.0053 J0.0292
N12745 X1.3673 Y-1.6137 Z-0.03 I-0.0027 J0.0296
N12750 X1.3652 I-0.001 J0.
N12755 X1.3693 I0.0021 J0. F10.
N12760 X1.3058 I-0.0317 J0.
N12765 X1.3693 I0.0317 J0.
N12770 X1.3638 Y-1.6061 I-0.008 J0.
N12775 G1 X1.323 Y-1.5928
N12780 G3 X1.3142 Y-1.5954 I-0.0025 J-0.0076
N12785 X1.3159 Y-1.5935 Z-0.0364 I0.0234 J-0.0183 F4.889
N12790 X1.3177 Y-1.5917 Z-0.0428 I0.0217 J-0.0203
N12795 X1.3197 Y-1.59 Z-0.0493 I0.0199 J-0.0221
N12800 X1.3219 Y-1.5886 Z-0.0557 I0.0179 J-0.0237
N12805 X1.3673 Y-1.6137 Z-0.06 I0.0157 J-0.0252
N12810 X1.3652 I-0.001 J0.
N12815 X1.3693 I0.0021 J0. F10.
N12820 X1.3058 I-0.0317 J0.
N12825 X1.3693 I0.0317 J0.
N12830 X1.3638 Y-1.6061 I-0.008 J0.
N12835 G1 X1.323 Y-1.5928
N12840 G3 X1.3142 Y-1.5954 I-0.0025 J-0.0076
N12845 X1.3159 Y-1.5935 Z-0.0664 I0.0234 J-0.0183 F4.889
N12850 X1.3177 Y-1.5917 Z-0.0728 I0.0217 J-0.0203
N12855 X1.3197 Y-1.59 Z-0.0793 I0.0199 J-0.0221
N12860 X1.3219 Y-1.5886 Z-0.0857 I0.0179 J-0.0237
N12865 X1.3673 Y-1.6137 Z-0.09 I0.0157 J-0.0252
N12870 X1.3652 I-0.001 J0.
N12875 X1.3693 I0.0021 J0. F10.
N12880 X1.3058 I-0.0317 J0.
N12885 X1.3693 I0.0317 J0.
N12890 X1.3638 Y-1.6061 I-0.008 J0.
N12895 G1 X1.323 Y-1.5928
N12900 G3 X1.3142 Y-1.5954 I-0.0025 J-0.0076
N12905 X1.3159 Y-1.5935 Z-0.0964 I0.0234 J-0.0183 F4.889
N12910 X1.3177 Y-1.5917 Z-0.1028 I0.0217 J-0.0203
N12915 X1.3197 Y-1.59 Z-0.1093 I0.0199 J-0.0221
N12920 X1.3219 Y-1.5886 Z-0.1157 I0.0179 J-0.0237
N12925 X1.3673 Y-1.6137 Z-0.12 I0.0157 J-0.0252
N12930 X1.3652 I-0.001 J0.
N12935 X1.3693 I0.0021 J0. F10.
N12940 X1.3058 I-0.0317 J0.
N12945 X1.3693 I0.0317 J0.
N12950 X1.3638 Y-1.6061 I-0.008 J0.
N12955 G1 X1.323 Y-1.5928
N12960 G3 X1.3142 Y-1.5954 I-0.0025 J-0.0076
N12965 X1.3159 Y-1.5935 Z-0.1264 I0.0234 J-0.0183 F4.889
N12970 X1.3177 Y-1.5917 Z-0.1328 I0.0217 J-0.0203
N12975 X1.3197 Y-1.59 Z-0.1393 I0.0199 J-0.0221
N12980 X1.3219 Y-1.5886 Z-0.1457 I0.0179 J-0.0237
N12985 X1.3673 Y-1.6137 Z-0.15 I0.0157 J-0.0252
N12990 X1.3652 I-0.001 J0.
N12995 X1.3693 I0.0021 J0. F10.
N13000 X1.3058 I-0.0317 J0.
N13005 X1.3693 I0.0317 J0.
N13010 X1.3638 Y-1.6061 I-0.008 J0.
N13015 G1 X1.323 Y-1.5928
N13020 G3 X1.3142 Y-1.5954 I-0.0025 J-0.0076
N13025 X1.3159 Y-1.5935 Z-0.1564 I0.0234 J-0.0183 F4.889
N13030 X1.3177 Y-1.5917 Z-0.1628 I0.0217 J-0.0203
N13035 X1.3197 Y-1.59 Z-0.1693 I0.0199 J-0.0221
N13040 X1.3219 Y-1.5886 Z-0.1757 I0.0179 J-0.0237
N13045 X1.3673 Y-1.6137 Z-0.18 I0.0157 J-0.0252
N13050 X1.3652 I-0.001 J0.
N13055 X1.3693 I0.0021 J0. F10.
N13060 X1.3058 I-0.0317 J0.
N13065 X1.3693 I0.0317 J0.
N13070 X1.3638 Y-1.6061 I-0.008 J0.
N13075 G1 X1.323 Y-1.5928
N13080 G3 X1.3142 Y-1.5954 I-0.0025 J-0.0076
N13085 X1.3159 Y-1.5935 Z-0.1864 I0.0234 J-0.0183 F4.889
N13090 X1.3177 Y-1.5917 Z-0.1928 I0.0217 J-0.0203
N13095 X1.3197 Y-1.59 Z-0.1993 I0.0199 J-0.0221
N13100 X1.3219 Y-1.5886 Z-0.2057 I0.0179 J-0.0237
N13105 X1.3673 Y-1.6137 Z-0.21 I0.0157 J-0.0252
N13110 X1.3652 I-0.001 J0.
N13115 X1.3693 I0.0021 J0. F10.
N13120 X1.3058 I-0.0317 J0.
N13125 X1.3693 I0.0317 J0.
N13130 X1.3638 Y-1.6061 I-0.008 J0.
N13135 G1 X1.323 Y-1.5928
N13140 G3 X1.3142 Y-1.5954 I-0.0025 J-0.0076
N13145 X1.3159 Y-1.5935 Z-0.2164 I0.0234 J-0.0183 F4.889
N13150 X1.3177 Y-1.5917 Z-0.2228 I0.0217 J-0.0203
N13155 X1.3197 Y-1.59 Z-0.2293 I0.0199 J-0.0221
N13160 X1.3219 Y-1.5886 Z-0.2357 I0.0179 J-0.0237
N13165 X1.3673 Y-1.6137 Z-0.24 I0.0157 J-0.0252
N13170 X1.3652 I-0.001 J0.
N13175 X1.3693 I0.0021 J0. F10.
N13180 X1.3058 I-0.0317 J0.
N13185 X1.3693 I0.0317 J0.
N13190 G0 Z0.6
N13195 M5
N13200 G53 G0 Z0.

(2D Pocket8)
N13210 M9
N13215 M1
N13220 T6 M6
(.125 2 flute)
N13225 S3667 M3
N13230 G54
N13235 M8
N13245 G0 X1.7977 Y-3.4149
N13250 G43 Z0.6 H6
N13255 T10
N13260 G0 Z0.2
N13265 G1 Z0.1 F7.334
N13270 G2 X2.1667 Y-2.5753 Z0.0637 I0.5507 J0.2588 F10.
N13275 G3 X2.1551 Y-2.5381 Z0.0616 I-0.0058 J0.0186
N13280 X1.8973 Y-3.6206 Z0.0148 I0.1933 J-0.618
N13285 X1.9245 Y-3.5926 Z0.0127 I0.0136 J0.014
N13290 G2 X1.9228 Y-3.591 Z0.0126 I0.4231 J0.4374
N13295 X2.1667 Y-2.5753 Z-0.0312 I0.4256 J0.4349
N13300 G3 X2.1551 Y-2.5381 Z-0.0334 I-0.0058 J0.0186
N13305 X1.985 Y-2.6202 Z-0.04 I0.1933 J-0.618
N13310 X1.8973 Y-3.6206 I0.3634 J-0.5359 F15.
N13315 X1.9245 Y-3.5926 I0.0136 J0.014
N13320 G2 X1.9228 Y-3.591 I0.4231 J0.4374
N13325 X2.1667 Y-2.5753 I0.4256 J0.4349
N13330 G3 X2.1551 Y-2.5381 I-0.0058 J0.0186
N13335 X1.985 Y-2.6202 I0.1933 J-0.618
N13340 X1.8946 Y-3.6179 Z-0.08 I0.3634 J-0.5359 F10.
N13345 X1.8973 Y-3.6206 I0.4538 J0.4619 F15.
N13350 X1.9245 Y-3.5926 I0.0136 J0.014
N13355 G2 X1.9228 Y-3.591 I0.4231 J0.4374
N13360 X2.1667 Y-2.5753 I0.4256 J0.4349
N13365 G3 X2.1551 Y-2.5381 I-0.0058 J0.0186
N13370 X1.8946 Y-3.6179 I0.1933 J-0.618
N13375 X1.8973 Y-3.6206 Z-0.0801 I0.4538 J0.4619 F10.
N13380 X1.9245 Y-3.5926 Z-0.0823 I0.0136 J0.014
N13385 G2 X1.9228 Y-3.591 Z-0.0824 I0.4231 J0.4374
N13390 X2.0071 Y-2.6522 Z-0.12 I0.4256 J0.4349
N13395 X2.1667 Y-2.5753 I0.3413 J-0.5038 F15.
N13400 G3 X2.1551 Y-2.5381 I-0.0058 J0.0186
N13405 X1.8973 Y-3.6206 I0.1933 J-0.618
N13410 X1.9245 Y-3.5926 I0.0136 J0.014
N13415 G2 X1.9228 Y-3.591 I0.4231 J0.4374
N13420 X2.0071 Y-2.6522 I0.4256 J0.4349
N13425 X2.1667 Y-2.5753 Z-0.1262 I0.3413 J-0.5038 F10.
N13430 G3 X2.1551 Y-2.5381 Z-0.1283 I-0.0058 J0.0186
N13435 X1.7066 Y-3.2414 Z-0.16 I0.1933 J-0.618
N13440 X1.8973 Y-3.6206 I0.6418 J0.0854 F15.
N13445 X1.9245 Y-3.5926 I0.0136 J0.014
N13450 G2 X1.9228 Y-3.591 I0.4231 J0.4374
N13455 X2.1667 Y-2.5753 I0.4256 J0.4349
N13460 G3 X2.1551 Y-2.5381 I-0.0058 J0.0186
N13465 X1.7066 Y-3.2414 I0.1933 J-0.618
N13470 X1.8973 Y-3.6206 Z-0.1751 I0.6418 J0.0854 F10.
N13475 X1.9245 Y-3.5926 Z-0.1772 I0.0136 J0.014
N13480 G2 X1.9228 Y-3.591 Z-0.1773 I0.4231 J0.4374
N13485 X1.7621 Y-2.9931 Z-0.2 I0.4256 J0.4349
N13490 X2.1667 Y-2.5753 I0.5863 J-0.1629 F15.
N13495 G3 X2.1551 Y-2.5381 I-0.0058 J0.0186
N13500 X1.8973 Y-3.6206 I0.1933 J-0.618
N13505 X1.9245 Y-3.5926 I0.0136 J0.014
N13510 G2 X1.9228 Y-3.591 I0.4231 J0.4374
N13515 X1.7621 Y-2.9931 I0.4256 J0.4349
N13520 X2.1667 Y-2.5753 Z-0.2212 I0.5863 J-0.1629 F10.
N13525 G3 X2.1551 Y-2.5381 Z-0.2233 I-0.0058 J0.0186
N13530 X1.7897 Y-2.8288 Z-0.24 I0.1933 J-0.618
N13535 X1.8973 Y-3.6206 I0.5587 J-0.3272 F15.
N13540 X1.9245 Y-3.5926 I0.0136 J0.014
N13545 G2 X1.9228 Y-3.591 I0.4231 J0.4374
N13550 X2.1667 Y-2.5753 I0.4256 J0.4349
N13555 G3 X2.1551 Y-2.5381 I-0.0058 J0.0186
N13560 X1.7897 Y-2.8288 I0.1933 J-0.618
N13565 G0 Z0.2
N13570 G1 X1.8301 Y-6.7767 F500.
N13575 Z0.1 F7.334
N13580 G3 X1.5417 Y-5.726 Z0.0548 I-0.4816 J0.4328 F10.
N13585 X1.5301 Y-5.7632 Z0.0526 I-0.0058 J-0.0186
N13590 G2 X1.7723 Y-6.7805 Z0.0087 I-0.1817 J-0.5807
N13595 G3 X1.7995 Y-6.8085 Z0.0066 I0.0136 J-0.014
N13600 X1.5467 Y-5.7275 Z-0.04 I-0.4511 J0.4645
N13605 X1.5417 Y-5.726 I-0.1983 J-0.6164 F15.
N13610 X1.5301 Y-5.7632 I-0.0058 J-0.0186
N13615 G2 X1.7723 Y-6.7805 I-0.1817 J-0.5807
N13620 G3 X1.7995 Y-6.8085 I0.0136 J-0.014
N13625 X1.5467 Y-5.7275 I-0.4511 J0.4645
N13630 X1.5417 Y-5.726 Z-0.0402 I-0.1983 J-0.6164 F10.
N13635 X1.5301 Y-5.7632 Z-0.0423 I-0.0058 J-0.0186
N13640 G2 X1.8808 Y-6.6387 Z-0.08 I-0.1817 J-0.5807
N13645 X1.7723 Y-6.7805 I-0.5324 J0.2947 F15.
N13650 G3 X1.7995 Y-6.8085 I0.0136 J-0.014
N13655 X1.5417 Y-5.726 I-0.4511 J0.4645
N13660 X1.5301 Y-5.7632 I-0.0058 J-0.0186
N13665 G2 X1.8808 Y-6.6387 I-0.1817 J-0.5807
N13670 X1.7723 Y-6.7805 Z-0.0863 I-0.5324 J0.2947 F10.
N13675 G3 X1.7995 Y-6.8085 Z-0.0884 I0.0136 J-0.014
N13680 X1.8837 Y-5.9796 Z-0.12 I-0.4511 J0.4645
N13685 X1.5417 Y-5.726 I-0.5353 J-0.3644 F15.
N13690 X1.5301 Y-5.7632 I-0.0058 J-0.0186
N13695 G2 X1.7723 Y-6.7805 I-0.1817 J-0.5807
N13700 G3 X1.7995 Y-6.8085 I0.0136 J-0.014
N13705 X1.8837 Y-5.9796 I-0.4511 J0.4645
N13710 X1.5417 Y-5.726 Z-0.1351 I-0.5353 J-0.3644 F10.
N13715 X1.5301 Y-5.7632 Z-0.1373 I-0.0058 J-0.0186
N13720 G2 X1.9449 Y-6.2238 Z-0.16 I-0.1817 J-0.5807
N13725 X1.7723 Y-6.7805 I-0.5965 J-0.1202 F15.
N13730 G3 X1.7995 Y-6.8085 I0.0136 J-0.014
N13735 X1.5417 Y-5.726 I-0.4511 J0.4645
N13740 X1.5301 Y-5.7632 I-0.0058 J-0.0186
N13745 G2 X1.9449 Y-6.2238 I-0.1817 J-0.5807
N13750 X1.7723 Y-6.7805 Z-0.1812 I-0.5965 J-0.1202 F10.
N13755 G3 X1.7995 Y-6.8085 Z-0.1834 I0.0136 J-0.014
N13760 X1.9946 Y-6.3855 Z-0.2 I-0.4511 J0.4645
N13765 X1.5417 Y-5.726 I-0.6462 J0.0416 F15.
N13770 X1.5301 Y-5.7632 I-0.0058 J-0.0186
N13775 G2 X1.7723 Y-6.7805 I-0.1817 J-0.5807
N13780 G3 X1.7995 Y-6.8085 I0.0136 J-0.014
N13785 X1.9946 Y-6.3855 I-0.4511 J0.4645
N13790 X1.5417 Y-5.726 Z-0.2301 I-0.6462 J0.0416 F10.
N13795 X1.5301 Y-5.7632 Z-0.2323 I-0.0058 J-0.0186
N13800 G2 X1.7252 Y-5.8661 Z-0.24 I-0.1817 J-0.5807
N13805 X1.7723 Y-6.7805 I-0.3768 J-0.4778 F15.
N13810 G3 X1.7995 Y-6.8085 I0.0136 J-0.014
N13815 X1.5417 Y-5.726 I-0.4511 J0.4645
